X:1
T:FANTASIE On Hungarian Folk Melodies
T:Franz Liszt (1811 - 1886)
T:Arranged by Hans von Bülow (1830 - 1894) 
%%score { ( 1 3 ) | ( 2 4 5 6 ) } { ( 7 9 ) | ( 8 10 ) }
L:1/8
Q:1/4=96
M:4/4
K:G
V:1 treble nm="Piano I" snm="Pno. I"
V:3 treble 
V:2 bass 
V:4 bass 
V:5 bass 
V:6 bass 
V:7 treble nm="Piano II" snm="Pno. II"
V:9 treble 
V:8 bass 
V:10 bass 
V:1
"^Andante mesto" z8 | z8 | z8 | z8 | z8 | z8 | z8 | z8 | z8 | z8 | z8 | z8 | z8 | z8 | z8 | z8 | %16
[Q:1/4=36][Q:1/4=36] z z[K:bass][Q:1/4=96][Q:1/4=96] z2 z[K:treble] z z2 | %17
[M:5/4] x/4!8va(! _e'/8a'/8 x/4 _b'/8d''/8 a'/8!<(!d'/8b'/8d''/8a'/8d'/8b'/8d''/8 a'/8d'/8b'/8d''/8a'/8d'/8b'/8d''/8 a'/8d'/8b'/8d''/8a'/8d'/8b'/8d''/8 a'/8d'/8b'/8d''/8a'/8d'/8!<)!b'/8!ff!d''/8 a'/8d'/8b'/8!>(!d''/8a'/8d'/8b'/8d''/8[Q:1/4=84][Q:1/4=84] a'/8d'/8b'/8d''/8a'/8d'/8b'/8d''/8[Q:1/4=72][Q:1/4=72] a'/8d'/8b'/8d''/8a'/8d'/8b'/8d''/8 a'/8!mp!d'/8b'/8!>)!d''/8a'/8d'/8b'/8d''/8 a'/8d'/8b'/8d''/8a'/8d'/8b'/8d''/8!8va)! | %18
[Q:1/4=36][Q:1/4=36]"_ten."[Q:1/4=36]!mp!!8va(! !arpeggio![d'f'a'] x[Q:1/4=72][Q:1/4=72] z2[Q:1/4=36][Q:1/4=36] !arpeggio![ad'a'][Q:1/4=72][Q:1/4=72](3^g/a/_b/(3a/=g/f/(3_e/d/^c/(3d/e/f/g/a/ | %19
[M:4/4]!p! [d'_b'][Q:1/4=96][Q:1/4=96] !trill(!Tx2[Q:1/4=72][Q:1/4=72] a/_b/ ._e'/.d'/.c'/.b/ .a/.g/.f/.g/4>a/4 | %20
[Q:1/4=36][Q:1/4=36]"_ten."[Q:1/4=36] !arpeggio![d'a'] x[Q:1/4=72][Q:1/4=72] x2 x4!8va)! | %21
[Q:1/4=36] z8[Q:1/4=96][Q:1/4=96] | z8 | z8 | z8 | %25
[Q:1/4=36][Q:1/4=36] z2[K:bass][Q:1/4=96][Q:1/4=96] z2 z/ z/[K:treble] z z2 | %26
[M:5/4] z/4 c'/8f'/8 z/4!8va(! g'/8a'/8 f'/8b/8g'/8b'/8f'/8b/8g'/8b'/8!<(! f'/8b/8g'/8b'/8f'/8b/8g'/8b'/8 f'/8b/8g'/8b'/8f'/8b/8g'/8b'/8 f'/8b/8g'/8b'/8f'/8!<)!b/8g'/8b'/8 f'/8b/8!>(!g'/8b'/8f'/8b/8g'/8b'/8[Q:1/4=84] f'/8b/8g'/8b'/8f'/8b/8g'/8b'/8[Q:1/4=72] f'/8b/8g'/8b'/8f'/8b/8g'/8b'/8!>)! f'/8b/8g'/8b'/8f'/8b/8g'/8b'/8 f'/8b/8g'/8b'/8f'/8b/8g'/8b'/8 | %27
[Q:1/4=36][Q:1/4=36] !arpeggio![^d'f']>[Q:1/4=72][Q:1/4=72]"^Adagio"b' f'/>b'/f'/>b'/[Q:1/4=36][Q:1/4=36] f'[Q:1/4=72][Q:1/4=72] (3^e'/f'/=g'/(3f'/=e'/^d'/(3c'/b/^a/(3b/c'/^d'/e'/f'/ | %28
[M:4/4] z/4 g'/4a'/4g'/4[Q:1/4=96][Q:1/4=96]!trill(!Ta'/4g'/4!trill)!a'/4g'/4a'/4g'/4a'/4g'/4[Q:1/4=72][Q:1/4=72]f'/g'/ .c''/.b'/.a'/.g'/ .f'/.e'/.^d'/.e'/4>f'/4 | %29
[Q:1/4=60][Q:1/4=60]!pp! !arpeggio![^d'f']>b' f'/>b'/f'/>b'/ f'3 b'!8va)! |[Q:1/4=88] z8 | z8 | %32
 z8 | z8 | z8 | z8 | z8 | z8 | %38
[K:bass]!ff![Q:1/4=122]"^Allegro molto" B,,/C,/E,/^D,/ G,/F,/A,/.C z[Q:1/4=66] !fermata!z2 z/ | %39
[Q:1/4=122] F,/G,/B,/A,/ C/B,/^D/.F z[Q:1/4=66] !fermata!z2 z/ | %40
[K:treble][Q:1/4=122] z/ B,/C/E/ ^D/G/F/A/ .c/ F/G/B/ A/c/B/^d/ | %41
 .f/ B/c/e/ ^d/g/f/a/ .c'/ f/g/b/ a/c'/b/^d'/ | %42
!ff! .f' x/!8va(! [c'c'']/x/[bb']/x/[aa']/x/[ff']/!8va)! x x2 | x8 |[K:bass] x8 | x8 | %46
 x4 x z[K:treble] [A,B,^DFB] z | %47
 [AB^dfb] z!8va(! [ab^d'f'b'] z z2!8va)![Q:1/4=66] !fermata!z2[Q:1/4=122] || %48
[K:E] [EGBe]3 .[Ff] .[Gg] [Acea]3 | [Begb]3 .[cc'] .[Bb] [Acea]3 | [GBeg]4 [FAdf]4 | [EGBe]4 z4 | %52
 [Bdfb]3 .[cc'] .[dd'] [egbe']3 | [fbf']3 .[gg'] .[ff']!fff! [egc'e']3 | [dfbd']4 [ce^ac']4 | %55
 [Bdfb]4 z4 | [egbe']3 .[gbg'] .[fbf'] [ebe']3 | [dfbd']3 .[cec'] .[Bdb] [ege']3 | %58
 .[Aca] [Aca]2 [Geg] [Geg]4 | [FBdf]4 z4 | [Bdfb]3 [cec'] .[dfd'] [ege']3 | %61
!ff! [faf']3!f! [ege'] .[dbd']!ff! [cac']3 | [Beb]2!f! [ee']2 .[Bb]!ff! [Acea]3 | %63
[Q:1/4=96] .[GBeg]!ff! [GBeg]2 z/[Q:1/4=84] [FAdf]/ [FAdf]7/2 [EGBe]/ | %64
[Q:1/4=72] !fermata![EGBe]8 || %65
"^A"[Q:1/4=122]!mp! (3E,/[G,B,]/E,/(3[G,E]/E,/[G,B,]/ (3E/[GB]/E/(3[Ge]/E/[GB]/ (3e/[gb]/e/(3[ae']/e/[ac']/!8va(! (3e'/[a'c'']/e'/.[a'e'']!8va)! | %66
 (3B,/[EG]/B,/(3[EB]/B,/[EG]/ (3B/[eg]/B/(3[ec']/c/[eg]/ (3e/[gb]/e/(3[ae']/e/[ac']/!8va(! (3e'/[a'c'']/e'/.[a'e'']!8va)! | %67
 z2 z/ .[be']/.g' z2 z/ .[ad']/.f' | %68
!mp! (3E,/[G,B,]/E,/(3[G,E]/E,/[G,B,]/ (3E/[GB]/E/(3[Ge]/E/[GB]/ (3e/[gb]/e/(3[ge']/!8va(!e'/[g'b']/!f! !arpeggio!.[e'g'b'e'']!8va)! z | %69
!mp! (3B,/[DF]/B,/(3[DB]/B,/[DF]/ (3B/[df]/d/(3[db]/d/[df]/!8va(! (3d'/[d'f']/d'/(3[e'b']/b/g'/ (3e'/b/g/!8va)!(3e/B/G/ | %70
 (3F/[Bd]/F/(3[Bf]/F/[Bd]/ (3f/[bd']/f/(3[bg']/g/[bd']/ (3f/[bf']/f/(3[ge']/e/[gc']/!8va(! (3e'/[g'c'']/e'/[g'e'']!8va)! | %71
!mp! x2 x/!8va(! .[f'b']/d''!8va)! x2 x/!8va(! .[e'^a']/c''!8va)! | %72
 (3B,/[DF]/B,/(3[DB]/B,/[DF]/ (3B/[df]/d/(3[db]/d/[df]/!8va(! (3b/[d'f']/d'/(3[d'b']/d'/[d'f']/ (6:4:6b/b'/b/b'/b/b'/ | %73
!mp! (6:4:6g/b'/a/b'/^a/b'/ (6:4:6b/b'/=c'/b'/^c'/b'/ (6:4:6=d'/b'/^d'/b'/e'/b'/ (6:4:6^e'/b'/f'/b'/=g'/b'/ | %74
 (6:4:6^g'/b'/a'/b'/^a'/b'/ (6:4:6=a'/b'/g'/b'/=g'/b'/ (6:4:6f'/b'/e'/b'/d'/b'/ (6:4:6=d'/b'/c'/b'/=c'/b'/ | %75
 (6:4:6b/a'/f'/b'/b/a'/ (6:4:6f'/b'/b/a'/f'/b'/ (6:4:6b/g'/e'/b'/d'/g'/ (6:4:6e'/b'/b/g'/e'/b'/ | %76
 (3b/g'/d'/(3b'/f'/d'/!8va)! (3b/f/d/(3B/F/D/ (3B,/D/F/(3B/d/f/!8va(!!<(! (3b/!mf!d'/f'/(3^a'/!f!b'/c''/!<)! | %77
[K:E]!mp! !trill(!Tb'/4c''/4!trill)!b'/4c''/4b'/4c''/4b'/4c''/4b'/4c''/4b'/4c''/4b'/4c''/4b'/4c''/4b'/4c''/4b'/4c''/4b'/4c''/4b'/4c''/4b'/4c''/4b'/4c''/4b'/4c''/4b'/4c''/4 | %78
 (5:4:5b'/4c''/4b'/4^a'/4b'/4f''/4e''/4d''/4c''/4 b'/4=a'/4g'/4f'/4e'/4d'/4c'/4b/4!8va)! d'/4c'/4b/4a/4g/4f/4e/4d/4 c/4B/4A/4G/4F/4E/4D/4C/4 | %79
 (6:4:6B,/[EG]/B,/[EB]/B,/[EG]/ (6:4:6e/[gb]/e/[ge']/e/[gb]/ z (3A/c/e/(6:4:6[ae']/c'/a/e/c/A/ | %80
!f! z2 z/ .[be']/!ff!g' z2 z/ .[ad']/!ff!f' | %81
!mp! (3E/[GB]/E/(3[Ge]/E/[GB]/ (3e/[gb]/e/(3[ge']/!8va(!e'/[g'b']/ .[e'g'b'e''] z z2 | %82
!mp! (6:4:6g/b'/a/b'/^a/b'/ (6:4:6b/b'/=c'/b'/^c'/b'/ (6:4:6=d'/b'/^d'/b'/e'/b'/ (6:4:6^e'/b'/f'/b'/=g'/b'/ | %83
 (6:4:6^g'/b'/a'/b'/^a'/b'/ (6:4:6=a'/b'/g'/b'/=g'/b'/ (6:4:6f'/b'/e'/b'/d'/b'/ (6:4:6=d'/b'/c'/b'/=c'/b'/ | %84
!mp! (6:4:6b/a'/f'/b'/b/a'/ (6:4:6f'/b'/b/a'/f'/b'/ (6:4:6b/g'/e'/b'/d'/g'/ (6:4:6e'/b'/b/g'/e'/b'/ | %85
 (3b/g'/d'/(3b'/f'/d'/!8va)! (3b/f/d/(3B/F/D/ (3B,/D/F/!<(!(3B/d/f/!8va(! (3b/!mf!d'/f'/(3^a'/!f!b'/c''/!<)!!8va)! | %86
!mp! b/4c'/4b/4c'/4b/4c'/4b/4c'/4b/4c'/4b/4c'/4b/4c'/4b/4c'/4b/4c'/4b/4c'/4b/4c'/4b/4c'/4b/4c'/4b/4c'/4b/4c'/4b/4c'/4 | %87
 (5:4:5b/4c'/4b/4^a/4b/4f'/4e'/4d'/4c'/4 b/4=a/4g/4f/4e/4d/4c/4B/4 d'/4c'/4b/4a/4g/4f/4e/4d/4 c/4B/4A/4G/4F/4E/4D/4C/4 | %88
 (6:4:6B,/[EG]/B,/[EB]/B,/[EG]/ (6:4:6e/[gb]/e/[ge']/e/[gb]/ z (3A/c/e/(6:4:6[ae']/c'/a/e/c/A/ | %89
 z2 z .[ge'g'] z2 z .[ad'f'] | %90
 (7:4:7[E,E]/F,/G,/A,/B,/C/D/ (7:4:7E/F/G/A/B/c/d/ (7:4:7e/f/g/a/b/c'/d'/!8va(! (7:4:7e'/f'/g'/a'/b'/c''/d''/ | %91
!ff![Q:1/4=132]"^Più animato""^B" .e''!8va)! z z2 z4 | z8 |!ff! [gbe'g']4 [fbd'f']4 | [egbe']6 z2 | %95
 z8 | z8 | [dfbd']4 [cf^ac']4 | [Bdfb]6 z2 | z8 | z8 |!mf! [A,CFA]3 .[G,C^EG] [G,CEG]3 .[F,A,=DF] | %102
 [F,A,=DF]8 | z8 | z8 | z8 | [G,B,EG]4 [F,B,DF]4 | x8 | z8 || %109
[M:2/4][Q:1/4=60]"^Molto Adagio, quasi Fantasia" EG | B>e B/>e/B/>e/ | %111
 B2{/^AB} (6:4:6=c/4B/4=A/4G/4=F/4E/4(6:4:6^D/4E/4^F/4G/4A/4B/4 | %112
[M:3/4] =c2[Q:1/4=120] (6:4:6B/c/=d/c/B/c/[Q:1/4=60] .=f/4.e/4.^d/4.c/4.B/4.A/4.G/4.A/4 | %113
[M:2/4] B2 (7:4:7^A/4B/4=c/4B/4e/4g/4b/4.e' | z2 z[K:bass]!p! =C,- | C,/B,,/E,,/=C,,/- C,,B,,, | %116
 E,,, z[Q:1/4=20]"^lungapausa" !fermata!z[K:treble][Q:1/4=60]!pp! (7:4:7B/4=c/4d/4e/4f/4g/4a/4 | %117
!p! b>e' b/>e'/b/>e'/ |[M:3/4] b2 ^a/8b/8 =c'/4b/4=a/4g/4=f/4e/4d/4 e/4f/4^f/4=g/4^g/4a/4^a/4b/4 | %119
 =c'2[Q:1/4=120] (6:4:6b/c'/=d'/c'/b/c'/[Q:1/4=60] .=f'/4.e'/4.^d'/4.c'/4.b/4.a/4.g/4.a/4 | %120
[M:2/4] !trill(!Ta/8!trill)!b/8a/8b/8g/4a/4=c'/4b/4a/4g/4 a>^c' | a/>c'/a/>c'/ aa/4b/4a/4=g/4 | %122
[M:3/4] !trill(!Tf/8!trill)!g/8f/8g/8f/8g/8f/8g/8f/8g/8f/8g/8f/8g/8f/8g/8 (5:4:5^e/4f/4g/4f/4=e/4=d/4e/4!pp!f/4g/4a/4!ppp!b/4c'/4=d'/4!8va(!(7:4:7e'/4f'/4g'/4a'/4b'/4c''/4=d''/4!8va)! | %123
[M:2/4][Q:1/4=48]"^ten." !fermata!=D2 z2[Q:1/4=96] ||[Q:1/4=96]"^Moderato" F3/2E/4F/4 ^G3/2F/4G/4 | %125
{/B} .A/>.G/.A/>.^A/{/.=c} .B/>.A/.B/>.=d/ | .=c/.e/ z .B/.e/ z | .A/.e/ z .=G/.e/ z | %128
 .=F/.e/ [=F,A,=DF] [E,A,^CE]2- | %129
 [E,A,^CE]/4C/4!>(!=F/4E/4C/4A,/4[K:bass]=F,/4E,/4C,/4[I:staff +1]A,,/4=F,,/4E,,/4A,,,/4E,,/4F,,/4A,,/4!>)! | %130
[I:staff -1] C,/4E,/4A,/4C/4[K:treble]E/4A/4c/4e/4 (5:4:5a/4c'/4!8va(!e'/4a'/4c''/4!pp!=f''/4e''/4c''/4a'/4!8va)! | %131
 x =f'/4e'/4c'/4a/4 x =f/4e/4c/4A/4 | x x2 .a' | %133
 z2[Q:1/4=60] z[Q:1/4=96] (6:4:6A/4B/4c/4=d/4e/4^f/4 | =g3/2a/4g/4 .f/.g/.e | f>=g .e/.f/.=d | %136
 .[=gb]/.[fa]/[eg] .[=df]/.[eg]/[ce] | f>.=g .e/.f/.=d | %138
 [Ff]3/2[Ee]/4[Ff]/4 [^G^g]3/2[Ff]/4[Gg]/4 |{/b} .[Aa]/.[Gg]/ .[Aa]{/=c'} .[Bb]/.[^A^a]/ .[Bb] | %140
 .[=c=c']/.[ee']/[cc'] .[Bb]/.[ee']/[Bb] | .[=A=a]/.[ee']/[Aa] .[=G=g]/.[ee']/[Gg] | %142
 .[=F=f]/.[ee']/ [Ff]2[K:bass] [=F,A,=D] | [=F,_B,=D][F,A,D=F][Q:1/4=48]!fff! !fermata![E,=B,E]2- | %144
[Q:1/4=96] [E,B,E]/4!f!G,/4B,/4=C/4[K:treble]E/4G/4B/4=c/4e/4c/4B/4G/4E/4G/4B/4c/4 | %145
e/4g/4b/4=c'/4e'/4c'/4b/4g/4e/4g/4b/4c'/4!8va(!e'/4g'/4b'/4=c''/4 | %146
 e''/4=c''/4b'/4g'/4e'/4g'/4b'/4c''/4 e''/4c''/4b'/4g'/4e'/4g'/4b'/4c''/4 | %147
 e''/4=c''/4b'/4g'/4e'/4g'/4b'/4c''/4 e''/4c''/4b'/4g'/4e'/4g'/4b'/4c''/4 | %148
 e''/4=c''/4b'/4g'/4e'/4g'/4b'/4c''/4"_dim." e''/4c''/4b'/4g'/4e'/4g'/4b'/4c''/4 | %149
 e''/4=c''/4b'/4g'/4e'/4g'/4b'/4c''/4 e''/4c''/4b'/4g'/4e'/4g'/4b'/4c''/4 | %150
!mf! (5:4:5e''/4^d''/4=d''/4^c''/4[I:staff +1]=c''/4[I:staff -1](5:4:5^d''/4=d''/4^c''/4=c''/4[I:staff +1]b'/4[I:staff -1] (5:4:5d''/4^c''/4=c''/4b'/4[I:staff +1]^a'/4[I:staff -1](5:4:5^c''/4=c''/4b'/4a'/4[I:staff +1]=a'/4 | %151
[I:staff -1] (5:4:5=c''/4b'/4^a'/4=a'/4[I:staff +1]g'/4[I:staff -1](5:4:5b'/4^a'/4=a'/4g'/4[I:staff +1]=g'/4[I:staff -1] (5:4:5^a'/4=a'/4^g'/4=g'/4[I:staff +1]^f'/4[I:staff -1](5:4:5a'/4^g'/4=g'/4f'/4[I:staff +1]=f'/4 | %152
[I:staff -1] (5:4:5^g'/4=g'/4f'/4=f'/4[I:staff +1]e'/4[I:staff -1](5:4:5g'/4^f'/4=f'/4e'/4[I:staff +1]^d'/4[I:staff -1] (5:4:5^f'/4=f'/4e'/4d'/4[I:staff +1]=d'/4[I:staff -1](5:4:5f'/4e'/4^d'/4=d'/4[I:staff +1]c'/4 | %153
[I:staff -1] (5:4:5e'/4d'/4=d'/4^c'/4!8va)![I:staff +1]=c'/4[I:staff -1](5:4:5^d'/4=d'/4^c'/4=c'/4[I:staff +1]b/4[I:staff -1] (5:4:5d'/4^c'/4=c'/4b/4[I:staff +1]^a/4[I:staff -1](5:4:5^c'/4=c'/4b/4^a/4[I:staff +1]=a/4 | %154
[I:staff -1] (5:4:5=c'/4b/4^a/4=a/4[I:staff +1]g/4[I:staff -1](5:4:5b/4^a/4=a/4g/4[I:staff +1]=g/4[I:staff -1] (5:4:5^a/4_a/4^g/4=g/4[I:staff +1]f/4[I:staff -1](5:4:5=a/4^g/4=g/4f/4[I:staff +1]=f/4 | %155
!mp![I:staff -1] (5:4:5^g/4=g/4f/4=f/4[I:staff +1]e/4[I:staff -1](5:4:5g/4^f/4=f/4e/4[I:staff +1]^d/4[I:staff -1] ^f/4=f/4e/4[I:staff +1]^d/4[I:staff -1] (3f/4e/4[I:staff +1]d/4[I:staff -1] (3f/4e/4[I:staff +1]d/4 | %156
[I:staff -1] (3=f/4e/4[I:staff +1]d/4[I:staff -1] (3f/4e/4[I:staff +1]d/4[I:staff -1](3f/4e/4[I:staff +1]d/4[I:staff -1] (3f/4e/4[I:staff +1]d/4[I:staff -1] (3f/4e/4[I:staff +1]d/4[I:staff -1] (3f/4e/4[I:staff +1]d/4[I:staff -1] Te/4f/4e/4f/4 | %157
 e/4=f/4e/4f/4e/4f/4e/4f/4e/4f/4e/4f/4e/4f/4e/4d/4 || %158
[K:C][M:2/4][Q:1/4=88]"^Allegretto alla Zingarese" e[ed']/ z/{/e} d'/ z/{/e}d'/ z/ | %159
{/e} .d'/>.c'/.b/>.a/ .^g/>.a/.b/>.g/ |{/b} .a/>.^g/.a/>.b/{/d'} .c'/>.b/.c'/>.d'/ | %161
 .^d'/>.e'/.f'/>.e'/ .=d'/>.c'/.b/>.a/ | e[ed']/ z/{/e} d'/ z/{/e}d'/ z/ | %163
{/e} .d'/>.c'/.b/>.a/ .^g/>.a/.b/>.g/ |{/b} .a/>.^g/.a/>.c'/ .e'/>.e/.^f/>.g/ | %165
 .a/>.e/.c'/>.b/ a z |!8va(!{/[^d^d']} [ee'].[=d'=d'']/ z/ .[d'd'']/z/.[d'd'']/ z/ | %167
 .[d'd'']/.[c'c'']/.[bb']/.[aa']/ .[^g^g']/.[aa']/.[bb']/.[gg']/ | %168
{/b'} .[aa']/.[^g^g']/.[aa']/.[bb']/{/d''} .[c'c'']/.[bb']/.[c'c'']/.[d'd'']/ | %169
 .[^d'^d'']/.[e'e'']/.[f'f'']/.[e'e'']/ .[=d'=d'']/.[c'c'']/.[bb']/.[aa']/ | %170
{/[^d^d']} [ee'].[=d'=d'']/ z/ .[d'd'']/z/.[d'd'']/ z/ | %171
 .[d'd'']/.[c'c'']/.[bb']/.[aa']/ .[^g^g']/.[aa']/.[bb']/.[gg']/ | %172
{/b'} .[aa']/.[^g^g']/.[aa']/[c'c'']/ [e'e'']/[ee']/[^f^f']/[gg']/ | %173
 [aa']/>e'/[c'c'']/>[bb']/ [aa']!8va)! z |"^C" z2 z3/2!f! [af']/4[c'e']/4 | %175
 [ge']/4[_bd']/4 [bd']/4[ac']/4[ac']/4[gb]/4 [gb]/4[^g=b]/4 [_bd']/4[ac']/4 [ac']/4[=gb]/4 .[fa] | %176
 z2 z x/!8va(! a'/4^g'/4 | ^g'/4=g'/4 g'/4f'/4f'/4e'/4 e'/4^c'/4 e'/4d'/4 d'/4=c'/4 .d'!8va)! | %178
 z2 z3/2 [af']/4[c'e']/4 | %179
 [ge']/4[_bd']/4 [bd']/4[ac']/4[ac']/4[gb]/4 [gb]/4[^g=b]/4 [_bd']/4[ac']/4 [ac']/4[=gb]/4 .[fa] | %180
 z2 z3/2!8va(! a'/4^g'/4 | ^g'/4=g'/4 g'/4f'/4f'/4e'/4 e'/4^c'/4 e'/4d'/4 d'/4=c'/4 .d'!8va)! | %182
 z!8va(! f''/4e''/4e''/4d''/4 d''/4^c''/4c''/4_b'/4b'/4a'/4a'/4^g'/4 | %183
 ^g'/4f'/4f'/4e'/4e'/4d'/4d'/4^c'/4!8va)! c'/4_b/4b/4a/4a/4^g/4g/4f/4 | %184
 f/4e/4e/4d/4d/4^c/4c/4_B/4 B/4A/4A/4^G/4G/4F/4F/4E/4 | %185
 z/!mp! E/4^d/4f/4e/4^d'/4f'/4!8va(!e'/4^d''/4f''/4e''/4f'/4e'/4f'/4e'/4!8va)! | %186
 z/ E/4^d/4f/4e/4^d'/4f'/4!8va(!e'/4^d''/4f''/4e''/4f'/4e'/4f'/4e'/4!8va)! | %187
 z/ E/4^d/4f/4e/4^d'/4f'/4!8va(!e'/4^d''/4f''/4e''/4f'/4e'/4f'/4e'/4!8va)! | %188
 z/ E/4^d/4f/4e/4^d'/4f'/4!8va(!e'/4^d''/4f''/4e''/4f'/4e'/4f'/4e'/4!8va)! | %189
 z/ E/4^d/4f/4e/4^d'/4f'/4!8va(!e'/4^d''/4f''/4e''/4f'/4e'/4f'/4e'/4!8va)! | %190
 z/ E/4^d/4f/4e/4^d'/4f'/4!8va(!e'/4^d''/4f''/4e''/4f'/4e'/4f'/4e'/4!8va)! | %191
 z/ E/4^d/4f/4e/4^d'/4f'/4!8va(!e'/4^d''/4f''/4e''/4f'/4e'/4f'/4e'/4!8va)! | %192
 z/ E/4^d/4f/4e/4^d'/4f'/4!8va(!e'/4^d''/4f''/4e''/4f'/4e'/4f'/4e'/4 | %193
!f! ^d'/4e'/4f'/4e'/4=d''/4e'/4f'/4e'/4 =d''/4e'/4f'/4e'/4=d''/4e'/4f'/4e'/4 | %194
 d''/4e'/4c''/4e'/4b'/4e'/4a'/4e'/4 ^g'/4e'/4a'/4e'/4b'/4e'/4g'/4e'/4 | %195
{/b'} a'/4e'/4^g'/4e'/4a'/4e'/4b'/4e'/4 c''/4e'/4b'/4e'/4c''/4e'/4d''/4e'/4 | %196
 ^d''/4e'/4e''/4e'/4f''/4e'/4e''/4e'/4 =d''/4e'/4c''/4e'/4b'/4e'/4a'/4e'/4 | %197
 ^d'/4e'/4f'/4e'/4=d''/4e'/4f'/4e'/4 =d''/4e'/4f'/4e'/4=d''/4e'/4f'/4e'/4 | %198
 d''/4e'/4c''/4e'/4b'/4e'/4a'/4e'/4 ^g'/4e'/4a'/4e'/4b'/4e'/4g'/4e'/4 | %199
{/b'} a'/4e'/4^g'/4e'/4a'/4e'/4c''/4e'/4 e''/4e'/4^d'/4e'/4^f'/4e'/4g'/4e'/4 | %200
 a'/4e'/4^c''/4e'/4e''/4e'/4c''/4e'/4 a'/4e'/4!mp!c''/4e'/4e''/4e'/4c''/4e'/4 | %201
 a'/4e'/4^c''/4e'/4e''/4e'/4c''/4e'/4 a'/4e'/4!p!c''/4e'/4e''/4e'/4c''/4e'/4 | %202
"^D"!pp! a'/4e'/4^c''/4e'/4e''/4e'/4c''/4e'/4 a'/4e'/4c''/4e'/4e''/4e'/4c''/4e'/4 | %203
 a'/4e'/4^c''/4e'/4e''/4e'/4c''/4e'/4 a'/4e'/4c''/4e'/4e''/4e'/4c''/4e'/4 | %204
 a'/4f'/4d''/4f'/4f''/4f'/4d''/4f'/4 a'/4f'/4d''/4f'/4f''/4f'/4d''/4f'/4 | %205
 a'/4f'/4d''/4f'/4f''/4f'/4d''/4f'/4 a'/4f'/4d''/4f'/4f''/4f'/4d''/4f'/4 | %206
 ^g'/4e'/4b'/4e'/4e''/4e'/4b'/4e'/4 g'/4e'/4b'/4e'/4e''/4e'/4b'/4e'/4 | %207
 ^g'/4e'/4b'/4e'/4e''/4e'/4b'/4e'/4 g'/4e'/4b'/4e'/4e''/4e'/4b'/4e'/4 | %208
 a'/4e'/4c''/4e'/4e''/4e'/4c''/4e'/4 a'/4e'/4c''/4e'/4e''/4e'/4c''/4e'/4 | %209
 a'/4e'/4c''/4e'/4e''/4e'/4c''/4e'/4 a'/4e'/4c''/4e'/4e''/4e'/4c''/4e'/4 | %210
 a'/4e'/4^c''/4e'/4e''/4e'/4c''/4e'/4 a'/4e'/4c''/4e'/4e''/4e'/4c''/4e'/4 | %211
 a'/4e'/4^c''/4e'/4e''/4e'/4c''/4e'/4 a'/4e'/4c''/4e'/4e''/4e'/4c''/4e'/4 | %212
!pp! a'/4f'/4d''/4f'/4f''/4f'/4d''/4f'/4 a'/4f'/4d''/4f'/4f''/4f'/4d''/4f'/4 | %213
 a'/4f'/4d''/4f'/4f''/4f'/4d''/4f'/4 a'/4f'/4d''/4f'/4f''/4f'/4d''/4f'/4 | %214
 a'/4f'/4d''/4f'/4f''/4f'/4d''/4f'/4 a'/4f'/4d''/4f'/4f''/4f'/4d''/4f'/4 | %215
 a'/4f'/4d''/4f'/4f''/4f'/4d''/4f'/4 a'/4f'/4d''/4f'/4f''/4f'/4d''/4f'/4 | %216
 _b'/4f'/4d''/4f'/4f''/4f'/4d''/4f'/4 b'/4f'/4d''/4f'/4f''/4f'/4d''/4f'/4 | %217
 _b'/4f'/4d''/4f'/4f''/4f'/4d''/4f'/4 b'/4f'/4d''/4f'/4f''/4f'/4d''/4f'/4 | %218
 _b'/4g'/4_e''/4g'/4g''/4g'/4e''/4g'/4 b'/4g'/4e''/4g'/4g''/4!pp!g'/4e''/4g'/4 | %219
 _b'/4g'/4_e''/4g'/4g''/4g'/4e''/4g'/4 b'/4g'/4e''/4g'/4g''/4g'/4e''/4g'/4 | %220
[Q:1/4=96]"_accelerando"!p! x/4 [g'c'']/4x/4[g'=e'']/4x/4[g'g'']/4x/4[g'e'']/4 x/4 [e'g']/4x/4[e'c'']/4x/4[e'e'']/4x/4[e'c'']/4 | %221
 x/4 [c'e']/4x/4"_crescendo"[c'g']/4x/4[c'c'']/4x/4[c'g']/4 x/4 [gc']/4x/4[ge']/4x/4[gg']/4x/4[ge']/4 | %222
 x/4 [_ac']/4x/4[af']/4x/4[a_a']/4x/4[af']/4 x/4 [fa]/4x/4[fc']/4x/4[ff']/4x/4[fc']/4!8va)! | %223
 x2 x/4 [_Ac]/4x/4[Af]/4x/4[Aa]/4x/4[Af]/4 | %224
!mp! x/4 [Gc]/4x/4[Ge]/4x/4[Gg]/4x/4[Ge]/4 x/4 [EG]/4x/4[Ec]/4x/4[Ee]/4x/4[Ec]/4 | %225
 x/4 [ce]/4x/4[cg]/4x/4[cc']/4x/4[cg]/4 x/4 [Gc]/4x/4[Ge]/4x/4[Gg]/4x/4[Ge]/4 | %226
 x/4 [_Ac]/4x/4[Af]/4x/4[A_a]/4x/4[Af]/4[K:bass] x/4 [F,_A,]/4x/4[F,C]/4x/4[F,F]/4x/4[F,C]/4 | %227
 x4 || %228
[K:Db][K:treble]"^E""^Molto animato" [D,D]/4E,/4F,/4G,/4A,/4B,/4C/4D/4E/4F/4G/4A/4B/4c/4d/4e/4 | %229
f/4g/4a/4b/4c'/4d'/4e'/4f'/4 .g' z | [A,A]/4B,/4C/4D/4E/4F/4G/4A/4B/4c/4d/4e/4f/4g/4a/4b/4 | %231
!8va(!c'/4d'/4e'/4f'/4g'/4a'/4b'/4c''/4 .d'' z | %232
 f''/4e''/4d''/4c''/4b'/4a'/4g'/4f'/4e'/4d'/4c'/4b/4a/4g/4f/4!8va)! z/4 | %233
 e/4d/4c/4B/4A/4G/4F/4E/4D/4C/4B,/4A,/4G,/4F,/4E,/4 z/4 | (3.D,2 .[Dd]2 .[dd']2 | %235
!8va(! .[d'd'']!8va)! z z2 |!mf! [A,A]/4B,/4C/4D/4E/4F/4=G/4A/4B/4c/4d/4e/4f/4=g/4a/4b/4 | %237
!8va(!c'/4d'/4e'/4f'/4=g'/4a'/4b'/4c''/4 .d''!8va)! z | %238
 [Ee]/4F/4=G/4A/4B/4c/4d/4e/4f/4=g/4!8va(!a/4b/4c'/4d'/4e'/4f'/4 | %239
=g'/4a'/4b'/4=b'/4c''/4d''/4e''/4=e''/4 .f''!8va)! z | %240
!8va(! c''/4b'/4a'/4=g'/4f'/4e'/4d'/4c'/4!8va)!b/4a/4=g/4f/4e/4d/4c/4 z/4 | %241
 B/4A/4=G/4F/4E/4D/4C/4B,/4A,/4=G,/4[K:bass]F,/4E,/4D,/4C,/4B,,/4 z/4 | %242
!ff! (3.A,,2[K:treble] .[A,A]2 .[Aa]2 | .[aa'] z z2 || %244
[K:E]!f!!8va(! g'/4!p!a'/4g'/4a'/4g'/4a'/4g'/4a'/4g'/4a'/4g'/4a'/4!f!g'/4!p!a'/4g'/4a'/4 | %245
!f! g'/4!p!a'/4g'/4a'/4!f!g'/4!p!a'/4g'/4a'/4g'/4a'/4g'/4a'/4g'/4a'/4g'/4a'/4 | %246
!f! g'/4!p!a'/4g'/4a'/4g'/4a'/4g'/4a'/4g'/4a'/4g'/4a'/4!f!g'/4!p!a'/4g'/4a'/4 | %247
 g'/4!p!a'/4g'/4a'/4!f!g'/4!p!a'/4g'/4a'/4g'/4a'/4g'/4a'/4^^f'/g'/ | %248
!f! (6:4:6b'/4!mp!a'/4g'/4f''/4^e''/4=e''/4!f!(6:4:6d''/4!mp!=d''/4c''/4^b'/4=b'/4^a'/4 (6:4:6=a'/4g'/4^^f'/4^f'/4^e'/4=e'/4(6:4:6^d'/4=d'/4c'/4^b/4=b/4^a/4 | %249
!f! =a/4!mp!g/4a'/4g'/4!f!e'/4!mp!c'/4a/4g/4!8va)!e/4c/4A/4G/4E/4C/4A,/4G,/4 | %250
[K:bass]!f! !arpeggio![^B,,G,D] x[K:treble] x2 | %251
!p!!<(!!8va(! =c''/8c''/8c''/8c''/8 c''/8c''/8c''/8c''/8 c''/8c''/8c''/8c''/8 c''/8c''/8c''/8!<)!c''/8 c''/8c''/8c''/8c''/8 c''/8c''/8c''/8c''/8 c''/8c''/8c''/8c''/8 c''/8c''/8c''/8!ff!c''/8 || %252
[K:F]!f! c''/4!mp!_d''/4c''/4d''/4c''/4d''/4c''/4d''/4c''/4d''/4c''/4d''/4!f!c''/4!mp!d''/4c''/4d''/4 | %253
!f! c''/4!mp!_d''/4c''/4d''/4!f!c''/4!mp!d''/4c''/4d''/4c''/4d''/4c''/4d''/4c''/4d''/4c''/4d''/4 | %254
 c''/4!mp!_d''/4c''/4d''/4c''/4d''/4c''/4d''/4c''/4d''/4c''/4d''/4!f!c''/4!mp!d''/4c''/4d''/4 | %255
!f! c''/4!mp!_d''/4c''/4d''/4!f!c''/4!mp!d''/4c''/4d''/4c''/4d''/4c''/4d''/4=b'/c''/ | %256
!mp! (5:4:5_d''/4c''/4g''/4^f''/4=f''/4(6:4:6e''/4_e''/4=d''/4_d''/4c''/4=b'/4 (6:4:6_b'/4a'/4_a'/4g'/4^f'/4=f'/4(6:4:6=e'/4_e'/4=d'/4_d'/4c'/4=b/4 | %257
 _d'/4c'/4_d''/4c''/4_a'/4f'/4=b/4c'/4!8va)!a/4f/4=B/4c/4_A/4F/4=B,/4C/4 | %258
!p! _D/4F,/4_A,/4D/4F/4_A/4_d/4f/4!8va(!_a'/4_d'/4f'/4a'/4 _d''!8va)! |[Q:1/4=72]"_Adagio" z4 | %260
 z4 |[Q:1/4=96] [_DF]/4F,/4_A,/4D/4F/4_A/4_d/4f/4_a/4_d'/4!8va(!f'/4_a'/4_d''/4f''/4 z/!8va)! | %262
 z4[Q:1/4=72] | z4 | z!pp! _a2[Q:1/4=96] g/a/ | %265
 b/4a/4_g/4f/4_e/4_d/4c/4d/4e/4f/4g/4a/4b/4=b/4c'/4_d'/4 | %266
!8va(! f'/4_e'/4_d'/4c'/4=b/4_b/4=g/4_a/4b/4=b/4c'/4d'/4e'/4=e'/4f'/4_g'/4 | %267
 _b'/4_a'/4g'/4f'/4=e'/4_d'/4c'/4d'/4e'/4f'/4g'/4=a'/4b'/4=b'/4c''/4_d''/4 | %268
 f''/4_d''/4c''/4=e''/4_e''/4=b'/4_b'/4=d''/4_d''/4a'/4_a'/4c''/4=b'/4g'/4_g'/4_b'/4 | %269
 =a'/4f'/4=e'/4^g'/4=g'/4_e'/4=d'/4^f'/4=f'/4_d'/4c'/4=e'/4_e'/4=b/4_b/4=d'/4 | %270
 _d'/4=a/4_a/4c'/4=b/4g/4!8va)!_g/4_b/4=a/4f/4=e/4^g/4=g/4_e/4d/4^f/4 | %271
 =f/4_d/4_A/4d/4f/4_a/4_d'/4f'/4!8va(! ._a'/._d''/.a'/.d''/ | %272
 ._a'/._d''/.a'/.d''/!8va)![Q:1/4=36] !fermata!z/[Q:1/4=72]"^Più lento" ^F/4^c/4^f/4a/4^c'/4^f'/4 | %273
!8va(! .a'/.^c''/.a'/.c''/ .a'/.c''/.a'/.c''/!8va)! | %274
[Q:1/4=36] !fermata!z/[Q:1/4=72] =E/4^A/4^c/4[Q:1/4=66]"_riten."=e/4^a/4^c'/4!8va(! .e'/.[^a'^c'']/.e'/.[a'c'']/ | %275
 .e'/.[^a'^c'']/.e'/.[a'c'']/!8va)![Q:1/4=54] !fermata!z4 |:[M:2/4][Q:1/4=134]"^Vivace assai" x4 | %277
 x2 !trill(!TA/4B/4!trill)!A/4B/4A/4B/4A/4B/4 | z z !trill(!TG/4A/4!trill)!G/4A/4G/4A/4G/4A/4 | %279
 x2{/FG} FE/D/ | x4 | x2 !trill(!TA/4B/4!trill)!A/4B/4A/4B/4A/4B/4 | %282
 x2 !trill(!TG/4A/4!trill)!G/4A/4G/4A/4G/4A/4 | z4 | x4 | x2 a/4b/4a/4b/4a/4b/4a/4b/4 | %286
 .g.c g/4a/4g/4a/4g/4a/4g/4a/4 | .f.c{/fg} fe/d/ | x4 | x2 a/4b/4a/4b/4a/4b/4a/4b/4 | %290
 .g.c g/4a/4g/4a/4g/4a/4g/4a/4 | f2 z3/2 a/ |!f!!8va(! f'/e'/d'/^c'/ d'/e'/f'/d'/ | %293
 .e'z/a/e'z/.d'/ | .^c'z/a/.c'z/a/ | .d'z/a/.^f'z/a/ | =f'/e'/d'/^c'/ d'/e'/f'/d'/ | %297
 .e'z/a/.e'z/d'/ | .^c'z/a/.c'z/a/ | d'2 z3/2 a'/ | =f''/e''/d''/^c''/ d''/e''/f''/d''/ | %301
 e''z/a'/e''z/d''/ | ^c''z/a'/c''z/a'/ | d''z/a'/^f''z/a'/ | =f''/e''/d''/^c''/ d''/e''/f''/d''/ | %305
 e''z/a'/e''z/d''/ | ^c''z/a'/c''z/a'/ |1 %307
 d''/b'/a'/b'/ !trill(!Ta'/4b'/4a'/4!trill)!b'/4a'/4b'/4a'/4b'/4 | %308
 a'/4b'/4a'/4b'/4a'/4b'/4a'/4b'/4a'/4b'/4a'/4b'/4a'/4b'/4a'/4b'/4 | %309
 a'/4b'/4a'/4b'/4a'/4b'/4a'/4b'/4 ^g'/a'/b'/d''/ | %310
 f''/4e''/4d''/4^c''/4d''/4c''/4b'/4a'/4 b'/4a'/4^g'/4f'/4a'/4g'/4f'/4e'/4 | %311
 ^g'/4f'/4e'/4d'/4f'/4e'/4d'/4^c'/4 d'/4c'/4b/4a/4b/4a/4^g/4f/4!8va)! | %312
 a/4^g/4f/4e/4g/4f/4e/4d/4 f/4e/4d/4^c/4d/4c/4B/4A/4 | %313
 B/4A/4^G/4F/4A/4G/4F/4E/4 G/4F/4E/4D/4F/4E/4D/4"^F"^C/4 :|2!8va(! [d'f'd''] z!8va)! z2 || z4 | %316
 z4 | z4 | z4 | z4 | z4 | z4 | z4 | z4 | z4 | z4 | z4 | z4 | z4 | z4 | %330
 z!mp!!8va(! (3a/_b/^c'/d'/4e'/4f'/4^g'/4a'/4b'/4^c''/4d''/4 | %331
 .[a'^c''e''] e''/^f''/ .[a'c''e''] e''/f''/ | .[a'^c''e''] e''/^f''/ .[a'c''e''] e''/f''/ | %333
 [a'^c''e'']/^f''/[a'c''e'']/f''/[a'c''e'']/f''/[a'c''e'']/f''/ | %334
 [a'^c''e'']/^f''/[a'c''e'']/f''/ [a'c''e'']/f''/g''/f''/ | .d''z/[^f'a']/ .[d'd'']z/[f'a']/ | %336
 .[d'd'']z/[^f'a']/ .[d'd'']z/[f'a']/ | d''/[d'^f'a']/d''/[d'f'a']/d''/[d'f'a']/d''/[d'f'a']/ | %338
 d''/[d'^f'a']/d''/[d'f'a']/d''/[d'f'a']/d''/[d'f'a']/ | d''/e''/d''/c''/ .=b'z/[^d'^f']/ | %340
 .[=b=b']z/[^d'^f']/ .[bb']z/[d'f']/ | =b'/[=b^d'^f']/b'/[bd'f']/b'/[bd'f']/b'/[bd'f']/ | %342
 =b'/[=b^d'^f']/b'/[bd'f']/b'/[bd'f']/b'/[bd'f']/ |{/=b'} d''/=c''/b'/c''/ .a'z/[^c'e']/ | %344
 .a'z/[^c'e']/ .a'z/[c'e']/ | a'/[a^c'e']/a'/[ac'e']/a'/[ac'e']/a'/[ac'e']/ | %346
 a'/[a^c'e']/a'/[ac'e']/a'/[ac'e']/a'/[ac'e']/ | %347
 .a'!f!(7:4:7g''/4f''/4e''/4d''/4c''/4=b'/4a'/4(7:4:7g'/4f'/4e'/4d'/4c'/4=b/4a/4!8va)!(6:4:6g/4f/4e/4d/4c/4=B/4 | %348
 z (6:4:6g'/4f'/4e'/4d'/4c'/4=b/4(6:4:6a/4g/4f/4e/4d/4c/4(6:4:6=B/4A/4G/4F/4E/4D/4 | %349
 z B/A/ z G/^G/ | z2 A/4B/4A/4B/4A/4B/4A/4B/4 | z2 G/4A/4G/4A/4G/4A/4G/4A/4 | x2{/FG} FE/D/ | x4 | %354
 z2 A/4B/4A/4B/4A/4B/4A/4B/4 | z2 G/4A/4G/4A/4G/4A/4G/4A/4 | z4 | x4 | %358
 x2 a/4b/4a/4b/4a/4b/4a/4b/4 | .g.d g/4a/4g/4a/4g/4a/4g/4a/4 | .f.c{/fg} fe/d/ | x4 | %362
 x2 a/4b/4a/4b/4a/4b/4a/4b/4 | .g.d g/4a/4g/4a/4g/4a/4g/4a/4 |"^G" [Af]2 z2 | z4 | z4 | z4 | z4 | %369
 z4 | z4 | z4 | z4 | z4 | z4 | z4 | z4 | z4 | z4 | z4 | %380
 z!p!!8va(! (3a/_b/^c'/d'/4e'/4f'/4^g'/4a'/4b'/4^c''/4d''/4 | %381
"^H" .[a'^c''e''] e''/^f''/ .[a'c''e''] e''/f''/ | .[a'^c''e''] e''/^f''/ .[a'c''e''] e''/f''/ | %383
 [a'^c''e'']/^f''/[a'c''e'']/f''/[a'c''e'']/f''/[a'c''e'']/f''/ | %384
 [a'^c''e'']/^f''/[a'c''e'']/f''/ [a'c''e'']/f''/[a'c''e'']/f''/ | %385
 [a'^c''e'']/^f''/[a'c''e'']/f''/ [a'c''e'']/f''/[a'c''e'']/f''/ | %386
 [a'^c''e'']/^f''/[a'c''e'']/f''/ [a'c''e'']/f''/g''/f''/ | .d''z/[^f'a']/ .[d'd'']z/[f'a']/ | %388
 .[d'd'']z/[^f'a']/ .[d'd'']z/[f'a']/ | d''/[d'^f'a']/d''/[d'f'a']/d''/[d'f'a']/d''/[d'f'a']/ | %390
 d''/[d'^f'a']/d''/[d'f'a']/d''/[d'f'a']/d''/[d'f'a']/ | %391
 d''/[d'^f'a']/d''/[d'f'a']/d''/[d'f'a']/d''/[d'f'a']/ | %392
 d''/[d'^f'a']/d''/[d'f'a']/d''/[d'f'a']/d''/[d'f'a']/ | d''/e''/d''/c''/ .=b'z/[^d'^f']/ | %394
 .[=b=b']z/[^d'^f']/ .[bb']z/[d'f']/ | =b'/[=b^d'^f']/b'/[bd'f']/b'/[bd'f']/b'/[bd'f']/ | %396
 =b'/[=b^d'^f']/b'/[bd'f']/b'/[bd'f']/b'/[bd'f']/ | %397
 =b'/[=b^d'^f']/b'/[bd'f']/b'/[bd'f']/b'/[bd'f']/ | %398
 =b'/[=b^d'^f']/b'/[bd'f']/b'/[bd'f']/b'/[bd'f']/ |{/=b'} d''/=c''/b'/c''/ .a'z/[^c'e']/ | %400
 .a'z/[^c'e']/ .a'z/[c'e']/ | a'/[a^c'e']/a'/[ac'e']/a'/[ac'e']/a'/[ac'e']/ | %402
 a'/[a^c'e']/a'/[ac'e']/a'/[ac'e']/a'/[ac'e']/ | a'/[a^c'e']/a'/[ac'e']/a'/[ac'e']/a'/[ac'e']/ | %404
 a'/[a^c'e']/a'/[ac'e']/a'/[ac'e']/a'/[ac'e']/ | %405
!f! .a'(7:4:7g''/4f''/4e''/4d''/4c''/4=b'/4a'/4(7:4:7g'/4f'/4e'/4d'/4c'/4=b/4a/4!8va)!(6:4:6g/4f/4e/4d/4c/4=B/4 | %406
 z (6:4:6g'/4f'/4e'/4d'/4c'/4=b/4(6:4:6a/4g/4f/4e/4d/4c/4(6:4:6=B/4A/4G/4F/4E/4D/4 | %407
 z B/A/ z G/^G/ | z2 A/4B/4A/4B/4A/4B/4A/4B/4 | z2 G/4A/4G/4A/4G/4A/4G/4A/4 | x2{/FG} FE/D/ | x4 | %412
 z2 A/4B/4A/4B/4A/4B/4A/4B/4 | z2 G/4A/4G/4A/4G/4A/4G/4A/4 | z4 | x4 | %416
 x2 a/4b/4a/4b/4a/4b/4a/4b/4 | .g.d g/4a/4g/4a/4g/4a/4g/4a/4 | .f.c{/fg} fe/d/ | x4 | %420
 x2 a/4b/4a/4b/4a/4b/4a/4b/4 | .g.d g/4a/4g/4a/4g/4a/4g/4a/4 | [Af]2 z2 | z4 | z4 | z4 | z4 | z4 | %428
 z4 | z4 || %430
!ff![Q:1/4=164]"^Prestissimo" z[I:staff +1] [A,CF]/[I:staff -1][Gcg]/[I:staff +1][A,CF]/[I:staff -1][Gcg]/[I:staff +1][F,CF]/[I:staff -1][Gcg]/ | %431
[I:staff +1][A,CF]/[I:staff -1][Gcg]/[I:staff +1][F,CF]/[I:staff -1][Gcg]/ x z | %432
 [_d_d']!f![I:staff +1] [F,_A,_D]/[I:staff -1][_E_A_e]/[I:staff +1] [F,A,D]/[I:staff -1][EAe]/[I:staff +1][_D,A,D]/[I:staff -1][EAe]/ | %433
[I:staff +1] [F,_A,_D]/[I:staff -1][_E_A_e]/[I:staff +1][_D,A,D]/[I:staff -1][EAe]/ x z | %434
!ff! .[ff']!f![I:staff +1] [=A,CF]/[I:staff -1][Gcg]/[I:staff +1][A,CF]/[I:staff -1][Gcg]/[I:staff +1][F,CF]/[I:staff -1][Gcg]/ | %435
[I:staff +1] [A,CF]/[I:staff -1][Gcg]/[I:staff +1][F,CF]/[I:staff -1][Gcg]/ x z | %436
 [=d=d']!f![I:staff +1] [^F,A,D]/[I:staff -1][=EA=e]/[I:staff +1] [F,A,D]/[I:staff -1][EAe]/[I:staff +1][D,A,D]/[I:staff -1][EAe]/ | %437
[I:staff +1] [^F,A,D]/[I:staff -1][EAe]/[I:staff +1][D,A,D]/[I:staff -1][EAe]/ x z | %438
!ff! .[_g_g']!f![I:staff +1] [_B,_D_G]/[I:staff -1][_A_d_a]/[I:staff +1][B,DG]/[I:staff -1][Ada]/[I:staff +1][_G,DG]/[I:staff -1][Ada]/ | %439
[I:staff +1][B,_D_G]/[I:staff -1][_A_d_a]/[I:staff +1][_G,DG]/[I:staff -1][Ada]/[I:staff +1][B,DG]/[I:staff -1][Ada]/[I:staff +1][G,DG]/[I:staff -1][Ada]/ | %440
[I:staff +1] [_D_GB]/[I:staff -1][c_gc']/[I:staff +1][DGB]/[I:staff -1][cgc']/ x/!8va(! [_eb_e']/x/[ebe']/ | %441
 x/ [_a_d'_a']/x/[ad'a']/ x/ [c'_g'c'']/x/[c'g'c'']/ | %442
!>(! [_g'b'_d'']/_e''/[g'b'd'']/e''/[g'_b'd'']/e''/[g'b'd'']/e''/ | %443
"^J" [_g'b'_d'']/!mf!_e''/[g'b'd'']/e''/[g'_b'd'']/e''/[g'b'd'']/!>)!e''/ | %444
!>(! [_g'b'_d'']/!mp!_e''/[g'b'd'']/e''/[g'_b'd'']/e''/!p![g'b'd'']/e''/!>)! | %445
!p! _d''/_e''/d''/e''/d''/e''/d''/e''/ | _d''/_e''/d''/e''/d''/e''/d''/e''/ | %447
 _d''/_e''/d''/e''/d''/e''/d''/e''/ | _d''/_e''/d''/e''/d''/e''/d''/e''/ | %449
 _d''/_e''/d''/e''/d''/e''/d''/e''/ | c''/=e''/c''/e''/c''/e''/c''/e''/ | %451
 c''/e''/c''/e''/c''/e''/c''/e''/ | c''/f''/c''/f''/c''/f''/c''/f''/ | %453
 _d''/_e''/d''/e''/d''/e''/d''/e''/ | _d''/_e''/d''/e''/d''/e''/d''/e''/ | %455
 _d''/_e''/d''/e''/d''/e''/d''/e''/ | _d''/_e''/d''/e''/d''/e''/d''/e''/ | %457
 _d''/_e''/d''/e''/d''/e''/d''/e''/ | c''/=e''/c''/e''/c''/e''/c''/e''/ | %459
 c''/e''/c''/e''/c''/e''/c''/e''/ | f'/c''/f'/f''/ f'/c''/f'/f''/ | %461
 f'/c''/!mp!f'/f''/ f'/c''/f'/f''/ | _g'/_d''/b'/_g''/ g'/d''/b'/g''/ | %463
 e'/c''/=g'/e''/ e'/c''/g'/e''/ | f'/c''/a'/f''/ f'/c''/a'/f''/ | %465
!mp! f'/c''/f'/f''/ f'/c''/f'/f''/ | _g'/_d''/b'/_g''/ g'/d''/b'/g''/ | %467
 e'/c''/=g'/e''/ e'/c''/g'/e''/ | f'/c''/!mf!a'/f''/ f'/c''/a'/f''/ | %469
 _g'/_d''/b'/_g''/ e'/c''/=g'/e''/ | f'/c''/a'/!f!f''/ f'/c''/a'/f''/ | %471
 _g'/_d''/b'/_g''/!f! x/"^cresc. molto" [e'=g'b'e'']/x/[e'g'b'e'']/ | %472
 x/ [e'g'b'e'']/x/[e'g'b'e'']/ x/ [e'g'b'e'']/x/[e'g'b'e'']/ | %473
 x/ [e'g'b'e'']/x/[e'g'b'e'']/ x/ [e'g'b'e'']/x/[e'g'b'e'']/ | %474
 x/ [e'g'b'e'']/x/[e'g'b'e'']/ x/ [e'g'b'e'']/x/[e'g'b'e'']/ | %475
"^K" x/ [e'g'b'e'']/x/[e'g'b'e'']/x/[e'g'b'e'']/x/[e'g'b'e'']/ | %476
 x/ [e'g'b'e'']/x/[e'g'b'e'']/x/[e'g'b'e'']/x/[e'g'b'e'']/ | %477
 x/ [e'g'b'e'']/x/[e'g'b'e'']/x/[e'g'b'e'']/x/[e'g'b'e'']/[Q:1/4=120] | %478
!fff! [e'^g'=b'e'']2!8va)! z2 | z4 | z4 | z4 | z4 | z4 | z4 | z4 |!ff!!8va(! [fac'f']3 .[gc'e'g'] | %487
 .[ac'f'a'] [bd'f'b']3 | [c'f'a'c'']3 .[d'f'b'd''] | .[c'f'a'c''] [bd'f'b']3 | [ac'f'a']4 | %491
 [c'e'g'c'']4 |[Q:1/4=144] [f'a'c''f''] z [c'c''][aa']!8va)! | [ff'][cc'][Aa][Ff] | %494
 [_d_d'][_A_a][Ff][Aa] | [_d_d'][ff']!8va(![bb'][d'_d''] | [f'f''] z [c'c''][aa']!8va)! | %497
 [ff'][cc'][Aa][Ff] | [_d_d'][_A_a][Ff][Aa] |!8va(! [_d_d'][ff'] [bb'][_d'_d''] | %500
!f! [f'=a'c'']/f''/[f'a'c'']/f''/ [f'a'c'']/f''/[f'a'c'']/f''/ | %501
 [f'a'c'']/f''/[f'a'c'']/f''/ [f'a'c'']/f''/[f'a'c'']/f''/ | %502
 [f'a'c'']/f''/[f'a'c'']/f''/ [f'a'c'']/f''/[f'a'c'']/f''/ | %503
 [f'a'c'']/f''/[f'a'c'']/f''/ [f'a'c'']/!ff!f''/[f'a'c'']/f''/ | %504
 [f'a'c'']/f''/[f'a'c'']/f''/ [f'a'c'']/f''/[f'a'c'']/f''/ | %505
 [f'a'c'']/f''/[f'a'c'']/f''/ [f'a'c'']/!fff!f''/[f'a'c'']/f''/ | [f'a'c''f'']2!8va)! z2 | %507
!fff! .[ac'f'a']2 z2 | .[ac'f'a']2 z2 | .[ac'f'a']2 z2 | %510
[Q:1/4=72]{/!fermata!C!fermata!D!fermata!E} !fermata!F4 |] %511
V:2
 z8 | z8 | z8 | z8 | z8 | z8 | z8 | z8 | z8 | z8 | z8 | z8 | z8 | z8 | z8 | z8 | %16
 z!f!!ped! !fermata!D,,- D,,/4A,,/4[I:staff -1]_B,,/4D,/4[I:staff +1]A,,/4D,/4[I:staff -1]_E,/4A,/4[I:staff +1](3D,/4A,/4[I:staff -1]_B,/4(3D/4[I:staff +1]A,/4D/4[K:treble][I:staff -1](3_E/4A/4[I:staff +1]D/4(3A/4[I:staff -1]_B/4d/4[I:staff +1] A/4d/4[I:staff -1]_e/4a/4[I:staff +1] d/4a/4[I:staff -1]_b/4d'/4!ped-up! | %17
[M:5/4]!ped![I:staff +1] a/8d'/8 x/4 d'/8a'/8 x/4 x2 x2 x2 x z/"^dim. e poco rall." df/!ped-up! | %18
 !arpeggio![DAdf] z z2 !arpeggio![D=cf] z z2 z2 |[M:4/4] !arpeggio![D_Bdg] z z2 z4 | %20
!pp! !arpeggio![DAdf] z z2 !fermata!z4 | z8 | z8 | z8 | z8 | %25
[K:bass]!f! z!ped! !fermata!B,,,- B,,,/4F,,/4[I:staff -1]G,,/4B,,/4[I:staff +1]F,,/4B,,/4[I:staff -1]C,/4F,/4[I:staff +1](3B,,/4F,/4[I:staff -1]G,/4(3B,/4[I:staff +1]F,/4B,/4[I:staff -1](3C/4F/4[I:staff +1]B,/4(3F/4[I:staff -1]G/4[I:staff +1][K:treble][I:staff -1]B/4[I:staff +1] F/4B/4[I:staff -1]c/4f/4[I:staff +1]B/4f/4[I:staff -1]g/4b/4!ped-up! | %26
[M:5/4]!f!!ped![I:staff +1] f/8b/8 z/4 b/8f'/8 z/4 z z2!ff! z4"^dim. e poco rall." z/!mp! B^d/!ped-up! | %27
!mp!"^ten." x3/2 b/ f/>b/f/>b/ !arpeggio![B,A^d] x x2 x2 | %28
[M:4/4]!p! z/4 g/4a/4g/4a/4g/4a/4g/4a/4g/4a/4g/4 f/g/ .c'/.b/.a/.g/ .f/.e/.^d/.e/4>d/4 | %29
"^ten." x3/2 b/ f/>b/f/>b/ f3 b |[K:bass] z8 | z8 | z8 | z8 | z8 | z8 | z8 | z8 | %38
 B,,,/C,,/E,,/^D,,/ G,,/F,,/A,,/.C, z !fermata!z2 z/ | %39
!p! F,,/G,,/B,,/A,,/ C,/B,,/^D,/.F, z !fermata!z2 z/ | %40
 z/!p! B,,/C,/E,/"^cresc." ^D,/G,/F,/A,/ .C/ F,/G,/B,/ A,/C/B,/^D/ | %41
 .F/ B,/C/E/[K:treble] ^D/G/F/A/ .c/ F/G/B/ A/c/B/^d/ | %42
 .f!ped! [cc']/x/[Bb]/x/[Aa]/x/[Ff]/ x/ [^D^d]/[I:staff -1][^d^d']/[I:staff +1][Cc]/[I:staff -1][cc']/[I:staff +1][B,B]/[I:staff -1][Bb]/!ped-up! | %43
!ped![I:staff +1] [A,A]/[I:staff -1][Aa]/[I:staff +1][F,F]/[I:staff -1][Ff]/[I:staff +1][K:bass][^D,^D]/[I:staff -1][^D^d]/[I:staff +1] [C,C]/[I:staff -1][Cc]/[I:staff +1][B,,B,]/[I:staff -1][B,B]/[I:staff +1][A,,A,]/[I:staff -1][A,A]/[I:staff +1][F,,F,]/[I:staff -1][F,F]/[I:staff +1][^D,,D,]/[I:staff -1][^D,^D]/!ped-up! | %44
!ped![I:staff +1] [C,,C,]/[I:staff -1][C,C]/[I:staff +1][B,,,B,,]/[I:staff -1][B,,B,]/[I:staff +1][A,,,A,,]/[I:staff -1][A,,A,]/[I:staff +1][F,,,F,,]/[I:staff -1][F,,F,]/[I:staff +1][^D,,,^D,,]/[I:staff -1]^D,/!ped-up!!ped![I:staff +1] C,,/[I:staff -1]C,/[I:staff +1]B,,,/[I:staff -1]B,,/[I:staff +1]A,,,/[I:staff -1]A,,/!ped-up! | %45
!ped![I:staff +1] C,,/[I:staff -1]C,/[I:staff +1]_A,,,/[I:staff -1]_A,,/[I:staff +1]G,,,/[I:staff -1]G,,/[I:staff +1] C,,/[I:staff -1]C,/[I:staff +1]G,,,/[I:staff -1]G,,/[I:staff +1]F,,,/[I:staff -1]F,,/[I:staff +1] C,,/[I:staff -1]C,/[I:staff +1]F,,,/[I:staff -1]F,,/!ped-up! | %46
!ped![I:staff +1] =F,,,/[I:staff -1]=F,,/[I:staff +1]C,,/[I:staff -1]C,/[I:staff +1] F,,,/[I:staff -1]F,,/[I:staff +1]E,,,/[I:staff -1]E,,/[I:staff +1] ^D,,,/[I:staff -1]^D,,/!ped-up![I:staff +1] z [B,,,^D,,^F,,B,,] z | %47
 [B,,^D,F,B,] z[K:treble] [B,^DFB] z z2 !fermata!z2[K:bass] || %48
[K:E]!ff! [E,,G,,B,,E,]3 .F, .G, [C,E,A,]3 | [G,,E,B,]3 .C .B, [C,E,A,]3 | [E,G,B,E]4 [D,F,B,D]4 | %51
 [B,,E,G,B,]4 z4 | [B,,D,F,B,]3 .C .D [G,B,E]3 |{/D,,D,} [F,B,F]3 .G .F [E,G,CE]3 | %54
 [D,F,B,D]4 [F,^A,CF]4 | [B,,D,F,B,]4 z4 |!f! [B,,G,E]3 .[B,G] .[A,B,F] [G,B,E]3 | %57
{/B,,,} [B,,F,D]3 .[E,C] .[D,B,] [B,,G,E]3 | .[D,A,] [D,A,]2 [E,G,] [E,G,]4 | [B,,D,F,]4 z4 | %60
 [D,F,B,]3 [E,=G,^A,C] .[F,=A,B,D] [^G,B,E]3 | [D,A,B,F]3 [E,G,E] .[B,D] [A,,E,C]3 | %62
 [G,,E,B,]2 E2 .B, [C,E,A,]3 | %63
!f! .[B,,E,G,B,] [B,,E,G,B,]2 z/"^rall." [B,,,D,,F,,B,,]/ [B,,,D,,F,,B,,]7/2 [E,,G,,B,,E,]/ | %64
 !fermata![E,,G,,B,,E,]8 ||!f!!ped! [E,,,G,,,B,,,E,,] z z!ped-up! .[F,F] .[G,G] [A,CEA]3 | %66
!ped! !arpeggio![G,,,E,,B,,] z z!ped-up![K:treble] .[Cc] .[B,B] [A,CEA]3 | %67
[K:bass]!ped! .[B,,G,]/[I:staff -1].[B,E]/[I:staff +1].[B,G]/[I:staff -1].[Be]/[I:staff +1][K:treble] .[Bg]/ z/ z!ped-up![K:bass]!ped! .[B,,F,]/[I:staff -1].[A,D]/[I:staff +1][K:treble].[B,F]/[I:staff -1].[Ad]/[I:staff +1] .[Bf]/ z/ z!ped-up! | %68
[K:bass]!f!!ped! [E,,,G,,,B,,,E,,] z!ped-up!!ped! [E,,G,,B,,E,] z!ped-up!!ped! [E,G,B,E] z[K:]!ped-up! !arpeggio!.[EGBe] z | %69
[K:bass]!f!!ped! [B,,,D,,F,,B,,] z z!ped-up![K:treble] .[Cc] .[Dd] [EGBe]3 | %70
[K:bass]!ped! !arpeggio![D,,B,,F,] z z!ped-up![K:treble] .[Gg] .[Ff] [EGce]3 | %71
[K:bass]!ped! .[F,D]/[I:staff -1].[FB]/[I:staff +1][K:treble].[Fd]/[I:staff -1].[fb]/[I:staff +1] .[fd']/ x/ x!ped-up![K:bass]!ped! .[F,C]/[I:staff -1].[E^A]/[I:staff +1][K:treble].[Fc]/[I:staff -1].[e^a]/[I:staff +1] .[fc']/ x/ x!ped-up! | %72
[K:bass]!ped! [B,,,D,,F,,B,,] z!ped-up!!ped! [B,,D,F,B,] z!ped-up![K:treble]!ped! [DFAd] z!ped-up!!ped! z2!ped-up! | %73
!f!!ped! !arpeggio![B,Ge]3!ped-up! [Bg] .[Af] [Ge]3 | %74
!ped! !arpeggio![B,Fd]3!ped-up! [Ec] .[DB] [Ge]3 | %75
!mp! (3.[fa].[eg].[df] (3.[ce].[Bd].[Ac] (3.[GB].[FA].[EG] (3.[EG].[B,F].[G,E] | %76
!ped! [B,F]4!ped-up!!ped! z4!ped-up! |[K:E]!f! [DFB]3 [EGc] .[FAd] [GBe]3 | %78
 !arpeggio![DABf]3 [EGBe] .[Bd]!ped! !arpeggio![A,EAc]3!ped-up! | %79
[K:bass]!ff!!ped! [G,,E,G,] z E2!ped-up! .B, [C,E,A,]3 | %80
!ped! .[B,,G,]/[K:treble][I:staff -1].[B,E]/[I:staff +1].[B,G]/[I:staff -1].[Be]/[I:staff +1] .[Bg]/ z/ z!ped-up![K:bass]!f!!ped! .[B,,F,]/[I:staff -1].[A,D]/[I:staff +1][K:treble].[B,F]/[I:staff -1].[Ad]/[I:staff +1] .[Bf]/ z/ z!ped-up! | %81
[K:bass]!f!!ped! [E,,G,,B,,E,] z!ped-up!!ped! [E,G,B,E] z[K:treble]!ped-up! .[EGBe] z z2 | %82
!f!!ped! !arpeggio![B,Ge]3!ped-up! [Bg] .[Af] [Ge]3 | %83
!ped! !arpeggio![B,Fd]3!ped-up! [Ec] .[DB] [Ge]3 | %84
 (3.[fa].[eg].[df] (3.[ce].[Bd].[Ac] (3.[GB].[FA].[EG] (3.[EG].[B,F].[G,E] | %85
!ped! [B,F]4!ped-up!!ped! z4!ped-up! |!f! [FAd]3 [GBe] .[Acf] [Bdg]3 | %87
 [Fcda]3 [GBdg] .[df]!ped! [CGce]3!ped-up! | %88
[K:bass]!ff!!ped! [G,,E,G,] z E2!ped-up! .B, [C,E,A,]3 | %89
!ff!!ped! .[B,,,B,,]/[I:staff -1].[G,EG]/[I:staff +1].[B,,B,]/[I:staff -1].[Geg]/[I:staff +1][K:treble] .[B,B] z!ped-up![K:bass]!ped! .[B,,,B,,]/[I:staff -1].[A,DF]/[I:staff +1].[B,,B,]/[I:staff -1].[Adf]/[I:staff +1] .[B,B] z!ped-up! | %90
!mp!!ped! (7:4:7E,,/F,,/G,,/A,,/B,,/C,/D,/ (7:4:7E,/F,/G,/A,/B,/C/D/!ped-up!!ped! (7:4:7E/D/C/B,/A,/G,/F,/ (7:4:7E,/D,/C,/B,,/A,,/G,,/F,,/!ped-up! | %91
 .E,, z z2 z4 | z8 | [G,B,EG]4 [B,,D,F,B,]4 | [E,G,B,E]6 z2 | z8 | z8 | [F,B,DF]4 [F,,^A,,C,F,]4 | %98
 [B,,D,F,B,]6 z2 | z8 | z8 | [F,,A,,C,F,]3 [C,,^E,,G,,C,] [C,,E,,G,,C,]3 [=D,,F,,=D,] | %102
 [=D,,F,,=D,]8 | z8 | z8 | z8 | x4 x4 | [E,,,G,,,B,,,E,,E,G,B,E]8 | z8 ||[M:2/4]!p! z2 | %110
!ped! !arpeggio![E,,B,,G,]4!ped-up! | !arpeggio![E,,=D,G,]4 |[M:3/4] !arpeggio![E,,=C,E,A,]6 | %113
[M:2/4] !arpeggio![E,,B,,G,]2 z2 |!pp!!ped! E>G E/>G/E/>G/!ped-up! | E4 | %116
!ped! z2!ped-up! !fermata!z!ped! z!ped-up! |[K:treble]!ped! [EB]4!ped-up! |[M:3/4] [EG=d]6 | %119
 [EA=c]6 |[M:2/4] [=FA]!arpeggio![=DFA] [A,EA]2- |!ped! [A,EA]4!ped-up! |[M:3/4] [A,=DF]3 z z2 | %123
[M:2/4][K:bass] z2 z!p!!ped!!<(! (5:4:5A,/4B,/4C/4=D/4E/4!ped-up!!<)! ||!f! z4 | z4 | z4 | z4 | %128
 z [=D,,=F,,A,,=D,]!f! [A,,,E,,A,,=C,]2- |!ped! [A,,,E,,A,,C,]2!ped-up!!ped! x2!ped-up! | %130
"^dimin."!ped! x4 |[K:treble] ^g'/4=f'/4e'/4c'/4 x ^g/4=f/4e/4c/4 x | %132
 ^G/4=F/4E/4C/4A,/4E/4A/4[I:staff -1]c/4e/4a/4c'/4e'/4!ped-up![I:staff +1] x | %133
 z2 z!pp!!<(! (6:4:6A,/4B,/4C/4=D/4E/4^F/4!<)! |!mf! =G3/2A/4G/4 .F/.G/.E | F>=G .E/.F/.=D | %136
 .[=GB]/.[FA]/[EG] .[=DF]/.[EG]/[CE] | F>.=G .E/.F/.=D |[K:bass]!f! F,3/2E,/4F,/4 ^G,3/2F,/4G,/4 | %139
{/B,} .A,/.G,/ .A,{/=C} .B,/.^A,/ .B, | .=C/.E/C .B,/.E/B, | .=A,/.E/A, .=G,/.E/G, | %142
 .=F,/.E/ F,2!ff! [=D,,=D,] | [_B,,,_B,,][A,,,=F,,A,,] !fermata![^G,,,E,,^G,,]2- | %144
 (3[G,,,E,,G,,]/!ped!B,,/E,/(3G,/B,/E/(3G/E/B,/(3G,/B,/E/ | %145
[K:treble](3G/B/e/(3g/e/B/(3G/B/e/(3g/b/e'/ | (3g'/e'/b/(3g/b/e'/(3g'/e'/b/(3g/b/e'/ | %147
 (3g'/e'/b/(3g/b/e'/(3g'/e'/b/(3g/b/e'/!ped-up! |!ped! g'/ z/ z z2 | z2 z2!ped-up! | x4 | x4 | x4 | %153
 x4 | x4 | x4 | x4!ped! | x4!ped-up! ||[K:C][M:2/4]!p! ^G,/>D/B/>E/ E,/>B,/^G/>E/ | %159
 ^G,/>D/B/>E/ E,/>B,/^G/>E/ | A,/>E/c/>A/ E,/>C/A/>E/ | A,/>E/c/>A/ E,/>C/A/>E/ | %162
 ^G,/>D/B/>E/ E,/>B,/^G/>E/ | ^G,/>D/B/>E/ E,/>B,/^G/>E/ | A,/>E/c/>A/ E,/>D/B/>E/ | %165
 A,/>C/A/>E/ [A,C] z | ^G,/>D/B/>E/ E,/>B,/^G/>E/ | ^G,/>D/B/>E/ E,/>B,/^G/>E/ | %168
 A,/>E/c/>A/ E,/>C/A/>E/ | A,/>E/c/>A/ E,/>C/A/>E/ | ^G,/>D/B/>E/ E,/>B,/^G/>E/ | %171
 ^G,/>D/B/>E/ E,/>B,/^G/>E/ | A,/>E/c/>A/ E,/>D/B/>E/ | A,/>C/A/>E/ [A,C] z | z2 z z | %175
 .C/ .[_Be]/.G/.[Be]/ .[Fc]/.[Fc]/.[Fc] | z4 | .[Adf]/.[Adf]/.[A^cg]/.[Aeg]/ .[df]/.[Aeg]/ .[df] | %178
 z4 | .C/ .[_Be]/.G/.[Be]/ .[Fc]/.[Fc]/.[Fc] | z4 | %181
 .[Adf]/.[Adf]/.[A^cg]/.[Aeg]/ .[df]/.[Aeg]/ .[df] |[K:bass] z4!ped! | z4 | z4!ped-up! | %185
!f! .[^G,,B,] z!ped! z2!ped-up! | .[E,,^G,] z!ped! z2!ped-up! | .[A,,C] z!ped! z2!ped-up! | %188
 .[E,,A,] z!ped! z2!ped-up! | .[^G,,B,] z!ped! z2!ped-up! | .[E,,^G,] z!ped! z2!ped-up! | %191
 .[A,,C] z .[E,,^G,]!ped! z!ped-up! |!ped! !arpeggio!.[A,,E,A,C]!ped-up! z!ped! z2!ped-up! | %193
[K:treble]!p! .E/.^g/.^G/.b/ .E/.g/.G/.b/ |!ped! E/^g/^G/b/ E/g/G/b/!ped-up! | %195
!ped! E/a/A/c'/ E/a/A/c'/!ped-up! |!ped! E/a/A/c'/ E/a/A/c'/!ped-up! | %197
!ped! E/^g/^G/b/ E/g/G/b/!ped-up! |!ped! E/^g/^G/b/ E/g/G/b/!ped-up! | %199
!ped! E/a/A/c'/ E/^g/B/d'/!ped-up! |!ped! !arpeggio![A^c']/e/[ac']/e/ ^c/e/[ac']/e/!ped-up! | %201
!ped! ^c/e/[a^c']/e/ c/e/[ac']/e/!ped-up! |!ped! ^c/e/[a^c']/e/ c/e/[ac']/e/!ped-up! | %203
!ped! ^c/e/[a^c']/e/ c/e/[ac']/e/!ped-up! |!ped! d/f/[ad']/f/ d/f/[ad']/f/!ped-up! | %205
!ped! d/f/[ad']/f/ d/f/[ad']/f/!ped-up! |!ped! d/^g/[bd']/g/ d/g/[bd']/g/!ped-up! | %207
!ped! d/^g/[bd']/g/ d/g/[bd']/g/!ped-up! |!ped! c/e/[ac']/e/ c/e/[ac']/e/!ped-up! | %209
!ped! c/e/[ac']/e/ c/e/[ac']/e/!ped-up! |!ped! ^c/e/[a^c']/e/ c/e/[ac']/e/!ped-up! | %211
!ped! ^c/e/[a^c']/e/ c/e/[ac']/e/!ped-up! |!ped! d/f/[ad']/f/ d/f/[ad']/f/!ped-up! | %213
!ped! d/f/[ad']/f/ d/f/[ad']/f/!ped-up! |!ped! =c/f/[ac']/f/ c/f/[ac']/f/!ped-up! | %215
!ped! =c/f/[ac']/f/ c/f/[ac']/f/!ped-up! |!ped! d/f/[_bd']/f/ d/f/[bd']/f/!ped-up! | %217
!ped! d/f/[_bd']/f/ d/f/[bd']/f/!ped-up! |!ped! _e/g/[_b_e']/g/ e/g/[be']/g/!ped-up! | %219
!ped! _e/g/[_b_e']/g/ e/g/[be']/g/!ped-up! | %220
!ped! [=e=e']/4x/4[gc']/4x/4[ee']/4x/4[gc']/4 x/4 [cc']/4x/4[eg]/4x/4[cc']/4x/4[eg]/4 x/4!ped-up! | %221
!ped! [Gg]/4x/4[ce]/4x/4[Gg]/4x/4[ce]/4 x/4 [Ee]/4x/4[Gc]/4x/4[Ee]/4x/4[Gc]/4 x/4!ped-up! | %222
!ped! [Ff]/4x/4[_Ac]/4x/4[Ff]/4x/4[Ac]/4 x/4 [Cc]/4x/4[FA]/4x/4[Cc]/4x/4[FA]/4 x/4!ped-up! | %223
!ped! [_A,_A]/4[I:staff -1][cf]/4[I:staff +1][CF]/4[I:staff -1][c_a]/4[I:staff +1][A,A]/4[I:staff -1][cc']/4[I:staff +1][CF]/4[K:bass][I:staff -1][ca]/4[I:staff +1] [F,F]/4x/4[A,C]/4x/4[F,F]/4x/4[A,C]/4 x/4!ped-up! | %224
!ped! [E,E]/4x/4[G,C]/4x/4[E,E]/4x/4[G,C]/4 x/4 [C,C]/4x/4[E,G,]/4x/4[C,C]/4x/4[E,G,]/4 x/4!ped-up! | %225
!ped! [_B,,G,]/4x/4[C,E,]/4x/4[B,,G,]/4x/4[C,E,]/4 x/4 [G,,E,]/4x/4[B,,C,]/4x/4[G,,E,]/4x/4[B,,C,]/4 x/4!ped-up! | %226
!ped! [F,,F,]/4x/4[_A,,C,]/4x/4[F,,F,]/4x/4[A,,C,]/4 x/4 [C,,C,]/4x/4[F,,A,,]/4x/4[C,,C,]/4z/4[F,,A,,]/4 x/4!ped-up! | %227
!ped! [_A,,,_A,,]/4[I:staff -1][C,F,]/4[I:staff +1][C,,F,,]/4[I:staff -1][C,_A,]/4[I:staff +1][A,,,A,,]/4[I:staff -1][C,C]/4[I:staff +1][C,,F,,]/4[I:staff -1][C,A,]/4[I:staff +1] [F,,,F,,]/4[I:staff -1][_A,,C,]/4[I:staff +1][A,,,C,,]/4[I:staff -1][A,,F,]/4[I:staff +1][F,,,F,,]/4[I:staff -1][A,,A,]/4[I:staff +1][A,,,C,,]/4[I:staff -1][A,,F,]/4!ped-up! || %228
[K:Db]!mf!!ped![I:staff +1] D,,/4E,,/4F,,/4G,,/4A,,/4B,,/4C,/4D,/4E,/4F,/4G,/4A,/4B,/4C/4D/4E/4 | %229
[K:treble]F/4G/4A/4B/4c/4d/4e/4f/4!ped-up! .g z | %230
[K:bass]!ped! [D,,A,,]/4B,,/4C,/4D,/4E,/4F,/4G,/4A,/4B,/4C/4[K:treble]D/4E/4F/4G/4A/4B/4 | %231
c/4d/4e/4f/4g/4a/4b/4c'/4!ped-up! .d' z | %232
!ped! f/4e/4d/4c/4B/4A/4G/4F/4E/4D/4C/4B,/4A,/4G,/4F,/4!ped-up! z/4 | %233
[K:bass]!ped! E/4D/4C/4B,/4A,/4G,/4F,/4E,/4D,/4C,/4B,,/4A,,/4G,,/4F,,/4E,,/4!ped-up!!ff! z/4 | %234
!ped! (3.D,,2 .[D,,D,]2 .[D,D]2 |[K:treble] .[Dd]!ped-up! z z2[K:bass] | %236
!ped! [A,,,A,,]/4B,,/4C,/4D,/4E,/4F,/4=G,/4A,/4[K:treble]B,/4C/4D/4E/4F/4=G/4A/4B/4 | %237
c/4d/4e/4f/4=g/4a/4b/4c'/4!ped-up! .d' z | %238
[K:bass]!ped! [A,,E,]/4F,/4=G,/4A,/4B,/4C/4D/4[K:treble]E/4F/4=G/4A/4B/4c/4d/4e/4f/4 | %239
=g/4a/4b/4=b/4c'/4d'/4e'/4=e'/4!ped-up! .f' z | %240
 c'/4b/4a/4=g/4f/4e/4d/4c/4B/4A/4=G/4F/4E/4D/4C/4 z/4 | %241
[K:bass] B,/4A,/4=G,/4F,/4E,/4D,/4C,/4B,,/4A,,/4=G,,/4F,,/4E,,/4D,,/4C,,/4B,,,/4 z/4 | %242
 (3.A,,,2 .[A,,,A,,]2 .[A,,A,]2 | .[A,A] z z2 ||[K:E][K:treble]!f! [EGc]3 [Ge] | [FAd] [EGc]3 | %246
!f! [DFB]3[K:bass][K:treble] [CEA] |!f! [^B,DG] [EGc]3 | %248
[K:bass]!ped! !arpeggio![DF] [DF]2!ped-up!!ped! z!ped-up! | %249
!ped! !arpeggio![CE] [CE]2!ped-up!!ped! z!ped-up! | %250
!ped! G,,,/4!mp!D,,/4G,,/4^B,,/4[I:staff -1]D,/4G,/4^B,/4D/4G/4^B/4d/4g/4!8va(!^b/4d'/4g'/4^b'/4!8va)! | %251
"^rinfozando"[I:staff +1] !fermata!z4!ped-up! ||[K:F][K:treble]!ped! [_Acf]3 [c_a]!ped-up! | %253
 .[B_dg]!ped! [_Acf]3!ped-up! |!f!!ped! [GB_e]3[K:bass][K:treble] [F_A_d]!ped-up! | %255
 .[=EGc]!ped! [_Acf]3!ped-up! |!f! !arpeggio![GB] [GB]2 z | %257
!mf!!ped! !arpeggio![CF_A] [FA]2 z!ped-up! | %258
[K:bass]!ped! z/4 _A,,/4_D,/4F,/4_A,/4[K:treble]_D/4F/4_A/4_d/4f/4_a/4_d'/4 f'!ped-up! | z4 | z4 | %261
[K:bass]!p!!ped! z/4 _A,,/4_D,/4F,/4_A,/4[K:treble]_D/4F/4_A/4_d/4f/4_a/4_d'/4f'/4_a'/4 z/!ped-up! | %262
 z4 | z4 | z!ped! [F_A]2 z | z4 | z4 | z4!ped-up! |!ped! x4 | x4!ped-up!!ped! | %270
 x4!ped-up!!ped!!ped-up! |!ped! z/ =B,/4F/4_A/4_d/4f/4_a/4 ._d'/.f'/.d'/.f'/ | %272
 ._d'/.f'/.d'/.f'/!ped-up! !fermata!z/!pp!!ped! =A,/4^F/4=A/4^c/4^f/4=a/4 | %273
 .^c'/.^f'/.c'/.f'/ .c'/.f'/.c'/.f'/!ped-up! | %274
 z/!ppp!!ped! G,/4^C/4=E/4^A/4^c/4e/4 .^a/.^c'/.a/.c'/ | .^a/.^c'/.a/.c'/!ped-up! !fermata!z4 |: %276
[M:2/4]!mf! C/[I:staff -1]B/[I:staff +1] B/[I:staff -1]A/[I:staff +1] A/[I:staff -1]G/[I:staff +1] G/[I:staff -1]^G/ | %277
[I:staff +1] .A.C x2 | .G.C x2 | .F.C x2 | %280
 C/[I:staff -1]B/[I:staff +1] B/[I:staff -1]A/[I:staff +1] A/[I:staff -1]G/[I:staff +1] G/[I:staff -1]^G/ | %281
[I:staff +1] .A.C x2 | .G.C x2 | .F z z z/ C/ | %284
 [Cc]/[I:staff -1][Bb]/[I:staff +1] B/[I:staff -1][Aa]/[I:staff +1] A/[I:staff -1][Gg]/[I:staff +1] G/[I:staff -1][^G^g]/ | %285
[I:staff +1] .A.C A/4B/4A/4B/4A/4B/4A/4B/4 | .G.C G/4A/4G/4A/4G/4A/4G/4A/4 | .F.C{/FG} FE/D/ | %288
 [Cc]/[I:staff -1][Bb]/[I:staff +1] B/[I:staff -1][Aa]/[I:staff +1] A/[I:staff -1][Gg]/[I:staff +1] G/[I:staff -1][^G^g]/ | %289
[I:staff +1] .A.C A/4B/4A/4B/4A/4B/4A/4B/4 | .G.C G/4A/4G/4A/4G/4A/4G/4A/4 | F2 z2 | %292
[K:bass]!ped! .D,[K:treble] .[FA].D.[FA]!ped-up! |!ped! .A, .[EA].^C.[EA]!ped-up! | %294
!ped! .A, .[GA].E.[AB]!ped-up! |[K:bass]!ped! .D,[K:treble] .[^FA].A,.[FA]!ped-up! | %296
[K:bass]!ped! .D,[K:treble] .[=FA].D.[FA]!ped-up! |!ped! .A, .[EA].^C.[EA]!ped-up! | %298
!ped! .A, .[GA].E.[AB]!ped-up! |!ped! .D .[^FA].d!ped-up! z |!ped! .D .[=fa].d.[fa]!ped-up! | %301
!ped! .A .[ea].^c.[ea]!ped-up! |!ped! .A .[ga].e.[ga]!ped-up! |!ped! .D .[^fa].A.[fa]!ped-up! | %304
!ped! .D .[=fa].d.[fa]!ped-up! |!ped! .A .a.[^ce].a!ped-up! |!ped! .A .[ga].e.[ga]!ped-up! |1 %307
!ped! .D z .[Adfa] z | z4 | z4!ped-up! | z4 | z4 | z4 | z4 :|2 [dfa] z z2 ||[K:bass] z4 | z4 | z4 | %318
 z4 | z4 | z4 | z4 | z4 | z4 | z4 | z4 | z4 | z4 | z4 | z4 | z4 | %331
[K:treble]!ped! E/^c/.e/ z/ a/^c'/.e'/ z/ | E/^c/.e/ z/ a/^c'/.e'/ z/ | E/^c/.e/ z/ a/^c'/.e'/ z/ | %334
 z4!ped-up! |!ped! D/A/.d/ z/ ^f/a/.d'/ z/ | D/A/.d/ z/ ^f/a/.d'/ z/ | D/A/.d/ z/ .[^fa] z | %338
 z4!ped-up! |!ped! =B,/^F/.=B/ z/ ^d/^f/.=b/ z/ | =B,/^F/.=B/ z/ ^d/^f/.=b/ z/!ped-up! | %341
!ped! =B,/^F/.=B/ z/ .[^d^f] z | z4!ped-up! |!ped! A,/E/.A/ z/ ^c/e/.a/ z/ | %344
 A,/E/.A/ z/ ^c/e/.a/ z/!ped-up! |!ped! A,/E/.A/ z/ .[^ce] z | z4!ped-up! |"^glissando" z4 | %348
 .A z z2 |!mf! .C z A/G/ z | .A.E z2 | .G.D z2 | .F.C z2 | %353
 C/[I:staff -1]B/[I:staff +1] B/[I:staff -1]A/[I:staff +1] A/[I:staff -1]G/[I:staff +1] G/[I:staff -1]^G/ | %354
[I:staff +1] .A.E z2 | .G.D z2 | .F z z z/ C/ | %357
 [Cc]/[I:staff -1][Bb]/[I:staff +1] B/[I:staff -1][Aa]/[I:staff +1] A/[I:staff -1][Gg]/[I:staff +1] G/[I:staff -1][^G^g]/ | %358
[I:staff +1] .A.E A/4B/4A/4B/4A/4B/4A/4B/4 | .G.D G/4A/4G/4A/4G/4A/4G/4A/4 | .F.C{/FG} FE/D/ | %361
 [Cc]/[I:staff -1][Bb]/[I:staff +1] B/[I:staff -1][=A=a]/[I:staff +1] A/[I:staff -1][Gg]/[I:staff +1] G/[I:staff -1][^G^g]/ | %362
[I:staff +1] .A.E A/4B/4A/4B/4A/4B/4A/4B/4 | .G.D G/4A/4G/4A/4G/4A/4G/4A/4 | F2 z2 | z4 | z4 | z4 | %368
 z4 | z4 |[K:bass] z4 | z4 | z4 | z4 | z4 | z4 | z4 | z4 | z4 | z4 | z4 | %381
[K:treble]!ped! E/^c/.e/ z/ a/^c'/.e'/ z/ | E/^c/.e/ z/ a/^c'/.e'/ z/ | E/^c/.e/ z/ a/^c'/.e'/ z/ | %384
 z4 | z4 | z4!ped-up! |!ped! D/A/.d/ z/ ^f/a/.d'/ z/ | D/A/.d/ z/ ^f/a/.d'/ z/ | %389
 D/A/.d/ z/ .[^fa] z | z4 | z4 | z4!ped-up! |!ped! =B,/^F/.=B/ z/ ^d/^f/.=b/ z/ | %394
 =B,/^F/.=B/ z/ ^d/^f/.=b/ z/!ped-up! |!ped! =B,/^F/.=B/ z/ .[^d^f] z | z4 | z4 | z4!ped-up! | %399
!ped! A,/E/.A/ z/ ^c/e/.a/ z/!ped-up! |!ped! A,/E/.A/ z/ ^c/e/.a/ z/ | A,/E/.A/ z/ .[^ce] z | z4 | %403
 z4 | z4!ped-up! |"^glissando" z4 | .A z z2 |!mp! .C z A/G/ z | .A.E z2 | .G.D z2 | .F.C z2 | %411
 C/[I:staff -1]B/[I:staff +1] B/[I:staff -1]A/[I:staff +1] A/[I:staff -1]G/[I:staff +1] G/[I:staff -1]^G/ | %412
[I:staff +1] .A.E z2 | .G.D z2 | .F z z z/ C/ | %415
 [Cc]/[I:staff -1][Bb]/[I:staff +1] B/[I:staff -1][Aa]/[I:staff +1] A/[I:staff -1][Gg]/[I:staff +1] G/[I:staff -1][^G^g]/ | %416
[I:staff +1] .A.E A/4B/4A/4B/4A/4B/4A/4B/4 | .G.D G/4A/4G/4A/4G/4A/4G/4A/4 | .F.C{/FG} FE/D/ | %419
 [Cc]/[I:staff -1][Bb]/[I:staff +1] B/[I:staff -1][=A=a]/[I:staff +1] A/[I:staff -1][Gg]/[I:staff +1] G/[I:staff -1][^G^g]/ | %420
[I:staff +1] .A.E A/4B/4A/4B/4A/4B/4A/4B/4 | .G.D G/4A/4G/4A/4G/4A/4G/4A/4 | F2 z2 | z4 | z4 | z4 | %426
 z4 | z4 | z4 | z4 ||[K:bass] z!ped! x x2 | x2 .[A,CF]!ped-up! x |!ped! [_D,,_D,] x x2 | %433
 z2 .[F,_A,_D]!ped-up! x |!ped! .[F,,F,] x x2 | x2 .[A,CF]!ped-up! x |!ff!!ped! [=D,,=D,] x x2 | %437
 x2 .[^F,A,D]!ped-up! x |!ped! .[_G,,_G,][K:treble] x x2 | x4!ped-up! | %440
!ped! x2 [_GB_d]/x/[_DBd]/ x/!ped-up! |!ped! [B_d_g]/x/[_Gdg]/ x/ [dgb]/x/[Bgb]/ z/!ped-up! | %442
!ped! [_gb_d']_d[gbd']d | [_gb_d']_d[gbd']d | [_gb_d']_d[gbd']d | [_gb_d']_d[gbd']d | %446
 [f_a_d']_d[fad']d!ped-up! |!ped! [f_a_d']_d[fad']d | [_gb_d']_d[gbd']d!ped-up! | %449
!ped! [_gb_d']_d[gbd']d!ped-up! |!ped! [egc']c[egc']c | [egc']c[egc']c!ped-up! | %452
!ped! [fac']c[fac']c!ped-up! |!ped! [_gb_d']_d[gbd']d!ped-up! |!ped! [f_a_d']_d[fad']d | %455
 [f_a_d']_d[fad']d!ped-up! |!ped! [_gb_d']_d[gbd']d | [_gb_d']_d[gbd']d!ped-up! | %458
!ped! [egc']c[egc']c | [egc']c[egc']c!ped-up! |"^cresc."!ped! [fac']c[fac']!mp!c | %461
 [fa]A[fa]A!ped-up! |!ped! [_gb]B [gb]B!ped-up! |!ped! [e=gc']c [egc']c!ped-up! | %464
!ped! [fac']c [fac']c | [fa]A[fa]A!ped-up! |!ped! [_gb]B [gb]B!ped-up! | %467
!ped! [e=gc']c [egc']!mf!c!ped-up! |!ped! [fac']c [fa]A!ped-up! |!ped! [_gb]B [e=gc']!f!c | %470
 [fac']c [fa]A | [_gb]B!ped-up!!ped! [ce=gc']/x/[cegc']/ x/ | %472
 [cegc']/x/[cegc']/ x/ [cegc']/x/[cegc']/ x/ | [cegc']/x/[cegc']/x/[cegc']/x/[Bb]/ x/ | %474
 [Gg]/x/[Ee]/x/[Cc]/x/[B,B]/ x/ |[K:bass] [G,G]/z/[E,E]/z/[C,C]/z/[B,,B,]/ z/ | %476
 [G,,G,]/z/[E,,E,]/z/[C,,C,]/z/[B,,,B,,]/ z/ | [G,,,G,,]/z/[E,,,E,,]/z/[C,,,C,,]/z/[C,,C,]/ z/ | %478
 [=B,,,=B,,]2!ped-up! z2 | z4 | z4 | z4 | z4 | z4 | z4 | z4 | %486
!ped!{/C,,C,} [F,A,CF]3!ped-up! .[G,CEG] |[K:treble] .[A,CFA] [B,DFB]3[K:bass]!ped!!ped-up! | %488
[K:treble] [CFAc]3 .[DFBd] | .[CFAc] [B,DFB]3 | [A,CFA]4 | [G,CEG]4 |!ff! [F,A,CF] z [Cc][A,A] | %493
[K:bass] [F,F][C,C][A,,A,][F,,F,] |!ped! [_D,_D][_A,,_A,][F,,F,][A,,A,]!ped-up! | %495
!ped! [_D,_D][F,F][K:treble][B,B][_D_d]!ped-up! |!ped! [Ff] z [Cc][A,A] | %497
[K:bass] [F,F][C,C][A,,A,][F,,F,]!ped-up! |!ped! [_D,_D][_A,,_A,][F,,F,][=A,,=A,]!ped-up! | %499
!ped! [_D,_D][F,F][K:treble] [B,B][D_d]!ped-up! |!ped! [FA=c]/f/[FAc]/f/ [FAc]/f/[FAc]/f/ | %501
 [FAc]/f/[FAc]/f/ [FAc]/f/[FAc]/f/ | [FAc]/f/[FAc]/f/ [FAc]/f/!ff![FAc]/f/ | %503
 [FAc]/f/[FAc]/f/ [FAc]/f/[FAc]/f/ | [FAc]/f/[FAc]/f/ [FAc]/f/!fff![FAc]/f/ | %505
 [FAc]/f/[FAc]/f/ [FAc]/f/[FAc]/f/ | [FAcf]2!ped-up!!ped! z2!ped-up! | %507
[K:bass]{/C,D,E,} .[F,,F,]2!ped! z2!ped-up! |{/C,D,E,} .[F,,F,]2!ped! z2!ped-up! | %509
{/C,D,E,} .[F,,F,]2!ped! z2!ped-up! |{/!fermata!C,!fermata!D,!fermata!E,} !fermata![F,,F,]4 |] %511
V:3
 x8 | x8 | x8 | x8 | x8 | x8 | x8 | x8 | x8 | x8 | x8 | x8 | x8 | x8 | x8 | x8 | %16
 x2[K:bass] x3[K:treble] x3 |[M:5/4] x/4!8va(! x15/4 x4 z z!8va)! |!8va(! a>d' a/>d'/a/>d'/ x6 | %19
[M:4/4] _b/4c'/4b/4c'/4b/4!trill)!c'/4b/4c'/4b/4c'/4b/4c'/4 z x4 | %20
 a>d' a/>d'/a/>d'/ a2- a/d'/a'/!fermata!d''/!8va)! | x8 | x8 | x8 | x8 | %25
 x2[K:bass] x17/6[K:treble] x19/6 |[M:5/4] x3/4!8va(! x37/4 | %27
 !arpeggio![fb]2 z2 !arpeggio![fb]2 x2 x2 |[M:4/4] !arpeggio![gbe'g'] z z2 z4 | %29
 !arpeggio![fb]2 z2 x4!8va)! | x8 | x8 | x8 | x8 | x8 | x8 | x8 | x8 |[K:bass] x8 | x8 | %40
[K:treble] x8 | x8 | x3/2!8va(! x7/2!8va)! x3 | x8 |[K:bass] x8 | x8 | x6[K:treble] x2 | %47
 x4!8va(! x2!8va)! x x/"_Allegro erico" [Ee]/ ||[K:E] x8 | x4 x2 x x/ [GBeg]/ | %50
 x2 x x/ [FAdf]/ x2 x x/ [EGBe]/ | x4 x2 x x/ [Bb]/ | x8 | x4 x2 x x/ [dfbd']/ | %54
 x2 x x/ [ce^ac']/ x2 x x/ [Bdfb]/ | x8 | x8 | x8 | x8 | x8 | x8 | x8 | x8 | x8 | x8 || %65
 x6!8va(! x2!8va)! | x6!8va(! x2!8va)! | x8 | x16/3!8va(! x5/3!8va)! x | x4!8va(! x3!8va)! x | %70
 x6!8va(! x2!8va)! | x5/2!8va(! x3/2!8va)! x5/2!8va(! x3/2!8va)! | x4!8va(! x4 | x8 | x8 | x8 | %76
 x2!8va)! x4!8va(! x2 |[K:E] x8 | x4!8va)! x4 | x2 e2 B A2 x | x8 | x10/3!8va(! x14/3 | x8 | x8 | %84
 x8 | x2!8va)! x4!8va(! x2!8va)! | x8 | x8 | x2 e2 B A2 x | x8 | x6!8va(! x33/16 | x!8va)! x7 | %92
 x4 x2 x x/ [gbe'g']/ | x2 x x/ [fbd'f']/ x2 x x/ [egbe']/ | x8 | x8 | x4 x2 x x/ [dfbd']/ | %97
 x2 x x/ [cf^ac']/ x2 x x/ [Bdfb]/ | x8 | x8 | x8 | x8 | x8 | x8 | x8 | x4 x2 x x/!f! [G,B,EG]/ | %106
 x2 x x/ [F,B,DF]/ x2 x x/ x/ | x8 | x8 ||[M:2/4] x2 | !arpeggio![B,E]4 | !arpeggio![B,E]2 x2 | %112
[M:3/4] !arpeggio![=CE]2 x2 x2 |[M:2/4] !arpeggio![B,E]2 x2 | x11/4[K:bass] x5/4 | x4 | %116
 x3[K:treble] x | [eg]4 |[M:3/4] e2 z2 x2 | [ea]2 x4 |[M:2/4] =c!arpeggio![B=f] ^c2- | c4 | %122
[M:3/4] A3 x x2 |[M:2/4] x4 || x4 | x4 | z =c z B | z A z =G | x4 | x3/2[K:bass] x5/2 | %130
 x[K:treble] x7/5!8va(! x8/5!8va)! | x4 | x4 | x4 | x4 | x4 | x4 | =d2 Ad | x4 | x4 | x4 | x4 | %142
 x3[K:bass] x | x4 | x[K:treble] x3 | x3!8va(! x | x4 | x4 | x4 | x4 | x4 | x4 | x4 | %153
 x4/5!8va)! x16/5 | x4 | x4 | x4 | x4 ||[K:C][M:2/4] x4 | x4 | x4 | x4 | x4 | x4 | x4 | x4 | %166
!8va(! x4 | x4 | x4 | x4 | x4 | x4 | x4 | x3!8va)! x | x4 | x4 | z2 z3/2!8va(! a/ | %177
 a/a/a/a/ a/a/a!8va)! | x4 | x4 | z2 z3/2!8va(! a/ | a/a/a/a/ a/a/a!8va)! | x!8va(! x3 | %183
 x2!8va)! x2 | x4 | x2!8va(! x2!8va)! | x2!8va(! x2!8va)! | x2!8va(! x2!8va)! | x2!8va(! x2!8va)! | %189
 x2!8va(! x2!8va)! | x2!8va(! x2!8va)! | x2!8va(! x2!8va)! | x2!8va(! x2 | x4 | x4 | x4 | x4 | x4 | %198
 x4 | x4 | x4 | x4 | x4 | x4 | x4 | x4 | x4 | x4 | x4 | x4 | x4 | x4 | x4 | x4 | x4 | x4 | x4 | %217
 x4 | x4 | x4 | x4 | x4 | x4!8va)! | x4 | x4 | x4 | x2[K:bass] x2 | x4 ||[K:Db][K:treble] x4 | x4 | %230
 x4 |!8va(! x4 | x15/4!8va)! x/4 | x4 | x4 |!8va(! x!8va)! x3 | x4 |!8va(! x3!8va)! x | %238
 x5/2!8va(! x3/2 | x3!8va)! x |!8va(! x2!8va)! x2 | x5/2[K:bass] x3/2 | x4/3[K:treble] x8/3 | x4 || %244
[K:E]!8va(! c'3 e' | d' c'3 | =b3 a | g c'3 | x4 | x2!8va)! x2 |[K:bass] x2[K:treble] x2 | %251
!8va(! x4 ||[K:F] f'3 _a' | g' f'3 | _e'3 _d' | c' f'3 | x4 | x2!8va)! x2 | x2!8va(! x2!8va)! | %259
 x4 | x4 | x5/2!8va(! x3/2!8va)! | x4 | x4 | z _d2 x | x4 |!8va(! x4 | x4 | x4 | x4 | %270
 x3/2!8va)! x5/2 | x2!8va(! x2 | x2!8va)! x2 |!8va(! x4!8va)! | x2!8va(! x2 | x2!8va)! x4 |: %276
[M:2/4] x4 | x4 | x4 | x4 | x4 | x4 | x4 | x4 | x4 | z .c c2 | x2 c2 | x4 | x4 | z .c c2 | x2 c2 | %291
 A2 x2 |!8va(! f x x2 | e x e x | ^c x c x | d x ^f x | =f x x2 | e x e x | ^c x c x | [d^f]2 x2 | %300
 x4 | e' x e' x | ^c' x c' x | d' x ^f' x | x4 | e' x e' x | ^c' x c' x |1 x4 | x4 | x4 | x4 | %311
 x4!8va)! | x4 | x4 :|2!8va(! x2!8va)! x2 || x4 | x4 | x4 | x4 | x4 | x4 | x4 | x4 | x4 | x4 | x4 | %326
 x4 | x4 | x4 | x4 | x!8va(! x3 | x4 | x4 | x4 | x4 | x4 | x4 | x4 | x4 | x4 | x4 | x4 | x4 | x4 | %344
 x4 | x4 | x4 | x179/60!8va)! x61/60 | x4 | x4 | x4 | x4 | x4 | x4 | x4 | x4 | x4 | x4 | z .e c2 | %359
 =B x c2 | A z _A z | x4 | z .[^ce] =c2 | =B x _B2 | x4 | x4 | x4 | x4 | x4 | x4 | x4 | x4 | x4 | %373
 x4 | x4 | x4 | x4 | x4 | x4 | x4 | x!8va(! x3 | x4 | x4 | x4 | x4 | x4 | x4 | x4 | x4 | x4 | x4 | %391
 x4 | x4 | x4 | x4 | x4 | x4 | x4 | x4 | x4 | x4 | x4 | x4 | x4 | x4 | x179/60!8va)! x61/60 | x4 | %407
 x4 | x4 | x4 | x4 | x4 | x4 | x4 | x4 | x4 | z .e c2 | =B x c2 | A z _A z | x4 | z .[^ce] =c2 | %421
 =B x _B2 | x4 | x4 | x4 | x4 | x4 | x4 | x4 | x4 || x4 | x4 | x4 | x4 | x4 | x4 | x4 | x4 | x4 | %439
 x4 | x5/2!8va(! x3/2 | x4 | x4 | x4 | x4 | [_g'b'] z z2 | [f'_a'] z z2 | [f'_a'] z z2 | %448
 [_g'b'] z z2 | [_g'b'] z z2 | =e' z g' z | e' z g' z | f' z a' z | [_g'b'] z z2 | [f'_a'] z z2 | %455
 [f'_a'] z z2 | [_g'b'] z z2 | [_g'b'] z z2 | =e' z g' z | e' z g' z | x4 | x4 | x4 | x4 | x4 | %465
 x4 | x4 | x4 | x4 | x4 | x4 | x4 | x4 | x4 | x4 | x4 | x4 | x4 | x2!8va)! x2 | x4 | x4 | x4 | x4 | %483
 x4 | x4 | x4 |!8va(! x4 | x4 | x4 | x2 x x/ [ac'f'a']/ | x2 x x/ [c'e'g'c'']/ | x4 | x4!8va)! | %493
 x4 | x4 | x2!8va(! x2 | x4!8va)! | x4 | x4 |!8va(! x4 | x4 | x4 | x4 | x4 | x4 | x4 | %506
 x2!8va)! x2 | x4 | x4 | x4 | x4 |] %511
V:4
 x8 | x8 | x8 | x8 | x8 | x8 | x8 | x8 | x8 | x8 | x8 | x8 | x8 | x8 | x8 | x8 | x5[K:treble] x3 | %17
[M:5/4] x10 | x10 |[M:4/4] x8 | x8 | x8 | x8 | x8 | x8 |[K:bass] x35/6[K:treble] x13/6 | %26
[M:5/4] x10 | !arpeggio![B,FB^d]2 x2 x6 |[M:4/4] !arpeggio![B,GBe] z z2 z4 | %29
 !arpeggio![B,FB^d]2 x2 x4 |[K:bass] x8 | x8 | x8 | x8 | x8 | x8 | x8 | x8 | x8 | x8 | x8 | %41
 x2[K:treble] x6 | x8 | x2[K:bass] x6 | x8 | x8 | x8 | x4[K:treble] x2 x x/[K:bass] E,/ || %48
[K:E] x8 | x4 x2 x B,,,/B,,/ | x2 x B,,,/B,,/ x2 x B,,,/B,,/ | x4 x2 x x/ B,,,/ | x8 | %53
 x4 x2 x x/ F,,/ | x2 x x/ F,,/ x2 x x/ B,,,/ | x8 | x8 | x8 | F,, F,,2 G,, G,,3 A,, | x8 | x8 | %61
 x8 | x8 | x8 | x8 || x8 | x3[K:treble] x5 |[K:bass] x2[K:treble] x2[K:bass] x[K:treble] x3 | %68
[K:bass] x17/3[K:] x7/3 |[K:bass] x3[K:treble] x5 |[K:bass] x3[K:treble] x5 | %71
[K:bass] x[K:treble] x3[K:bass] x[K:treble] x3 |[K:bass] x4[K:treble] x4 | x8 | x8 | x8 | x8 | %77
[K:E] x8 | x8 |[K:bass] x8 | x/[K:treble] x7/2[K:bass] x[K:treble] x3 | %81
[K:bass] x11/3[K:treble] x13/3 | x8 | x8 | x8 | x8 | x8 | x8 |[K:bass] x8 | %89
 x2[K:treble] x2[K:bass] x4 | x81/10 | x8 | x4 x2 x x/ [G,B,EG]/ | %93
 x2 x x/ [B,,D,F,B,]/ x2 x x/ [E,G,B,E]/ | x8 | x8 | x4 x2 x x/ [F,B,DF]/ | %97
 x2 x x/ [F,,^A,,C,F,]/ x2 x x/ [B,,D,F,B,]/ | x8 | x8 | x8 | x8 | x8 | x8 | x8 | x4 x2 x x/ x/ | %106
 [B,,,E,,G,,B,,]4 [B,,,D,,F,,B,,]4 | x8 | x8 ||[M:2/4] x2 | x4 | x4 |[M:3/4] x6 |[M:2/4] x4 | %114
 G,2 G,G, | G,4 | x4 |[K:treble] x4 |[M:3/4] x6 | x6 |[M:2/4] x4 | x4 |[M:3/4] x6 | %123
[M:2/4][K:bass] x4 || x4 | x4 | x4 | x4 | x4 | x4 | x4 |[K:treble] x4 | x4 | x4 | x4 | x4 | x4 | %137
 =D2 .A,D |[K:bass] x4 | x4 | x4 | x4 | x4 | x4 | x4 |[K:treble] x4 | x4 | x4 | x4 | x4 | x4 | x4 | %152
 x4 | x4 | x4 | x4 | x4 | x4 ||[K:C][M:2/4] x4 | x4 | x4 | x4 | x4 | x4 | x4 | x4 | x4 | x4 | x4 | %169
 x4 | x4 | x4 | x4 | x4 | x4 | x4 | x4 | x4 | x4 | x4 | x4 | x4 |[K:bass] x4 | x4 | x4 | x4 | x4 | %187
 x4 | x4 | x4 | x4 | x4 | x4 |[K:treble] x4 | x4 | x4 | x4 | x4 | x4 | x4 | x4 | x4 | x4 | x4 | %204
 x4 | x4 | x4 | x4 | x4 | x4 | x4 | x4 | x4 | x4 | x4 | x4 | x4 | x4 | x4 | x4 | x4 | x4 | x4 | %223
 x7/4[K:bass] x9/4 | x4 | x4 | x4 | x4 ||[K:Db] x4 |[K:treble] x4 |[K:bass] x5/2[K:treble] x3/2 | %231
 x4 | x4 |[K:bass] x4 | x4 |[K:treble] x7/2[K:bass] x/ | x2[K:treble] x2 | x4 | %238
[K:bass] x7/4[K:treble] x9/4 | x4 | x4 |[K:bass] x4 | x4 | x4 ||[K:E][K:treble] z2 G, x | x4 | %246
 z2[K:bass] G,,[K:treble] x | x4 |[K:bass] !arpeggio![^B,,G,]2 z2 | !arpeggio![C,G,]2 z2 | %250
 x3!8va(! x!8va)! | x4 ||[K:F][K:treble] z2 C2 | x4 | z2[K:bass] C,2[K:treble] | x4 | %256
 !arpeggio![=E,C]2 z2 | F, x x2 |[K:bass] _B,,, z[K:treble] x2 | x4 | x4 | %261
[K:bass] =B,,, z[K:treble] z2 | x4 | x4 | z =B,2 x | x4 | x4 | x4 | x4 | x4 | x4 | x4 | x4 | x4 | %274
 x4 | x6 |:[M:2/4] x4 | x4 | x4 | x4 | x4 | x4 | x4 | x4 | x4 | x4 | x4 | x4 | x4 | x4 | x4 | x4 | %292
[K:bass] x/[K:treble] x7/2 | x4 | x4 |[K:bass] x[K:treble] x3 |[K:bass] x/[K:treble] x7/2 | x4 | %298
 x4 | x4 | x4 | x4 | x4 | x4 | x4 | x4 | x4 |1 x4 | x4 | x4 | x4 | x4 | x4 | x4 :|2 x4 || %315
[K:bass] x4 | x4 | x4 | x4 | x4 | x4 | x4 | x4 | x4 | x4 | x4 | x4 | x4 | x4 | x4 | x4 | %331
[K:treble] x4 | x4 | x4 | x4 | x4 | x4 | x4 | x4 | x4 | x4 | x4 | x4 | x4 | x4 | x4 | x4 | x4 | %348
 x4 | x4 | x4 | x4 | x4 | x4 | x4 | x4 | x4 | x4 | x4 | x4 | x4 | x4 | x4 | x4 | x4 | x4 | x4 | %367
 x4 | x4 | x4 |[K:bass] x4 | x4 | x4 | x4 | x4 | x4 | x4 | x4 | x4 | x4 | x4 |[K:treble] x4 | x4 | %383
 x4 | x4 | x4 | x4 | x4 | x4 | x4 | x4 | x4 | x4 | x4 | x4 | x4 | x4 | x4 | x4 | x4 | x4 | x4 | %402
 x4 | x4 | x4 | x4 | x4 | x4 | x4 | x4 | x4 | x4 | x4 | x4 | x4 | x4 | x4 | x4 | x4 | x4 | x4 | %421
 x4 | x4 | x4 | x4 | x4 | x4 | x4 | x4 | x4 ||[K:bass] x4 | x4 | x4 | x4 | x4 | x4 | x4 | x4 | %438
 x[K:treble] x3 | x4 | x4 | x4 | x4 | x4 | x4 | x4 | x4 | x4 | x4 | x4 | x4 | x4 | x4 | x4 | x4 | %455
 x4 | x4 | x4 | x4 | x4 | x4 | x4 | x4 | x4 | x4 | x4 | x4 | x4 | x4 | x4 | x4 | x4 | x4 | x4 | %474
 x4 |[K:bass] x4 | x4 | x4 | x4 | x4 | x4 | x4 | x4 | x4 | x4 | x4 | x4 | %487
[K:treble] x2 x[K:bass] C,,/C,/ |[K:treble] x4 | x2 x x/ [A,CFA]/ | x2 x x/ [G,CEG]/ | x4 | x4 | %493
[K:bass] x4 | x4 | x2[K:treble] x2 | x4 |[K:bass] x4 | x4 | x2[K:treble] x2 | x4 | x4 | x4 | x4 | %504
 x4 | x4 | x4 |[K:bass] x4 | x4 | x4 | x4 |] %511
V:5
 x8 | x8 | x8 | x8 | x8 | x8 | x8 | x8 | x8 | x8 | x8 | x8 | x8 | x8 | x8 | x8 | x5[K:treble] x3 | %17
[M:5/4] x10 | x10 |[M:4/4] x8 | x8 | x8 | x8 | x8 | x8 |[K:bass] x35/6[K:treble] x13/6 | %26
[M:5/4] x10 | x10 |[M:4/4] x8 | x8 |[K:bass] x8 | x8 | x8 | x8 | x8 | x8 | x8 | x8 | x8 | x8 | x8 | %41
 x2[K:treble] x6 | x8 | x2[K:bass] x6 | x8 | x8 | x8 | x2[K:treble] x11/2[K:bass] x/ ||[K:E] x8 | %49
 x8 | x8 | x8 | x8 | x8 | x8 | x8 | x8 | x8 | x8 | x8 | x8 | x8 | x8 | x8 | x8 || x8 | %66
 x3[K:treble] x5 |[K:bass] x2[K:treble] x2[K:bass] x[K:treble] x3 |[K:bass] x17/3[K:] x7/3 | %69
[K:bass] x3[K:treble] x5 |[K:bass] x3[K:treble] x5 | %71
[K:bass] x[K:treble] x3[K:bass] x[K:treble] x3 |[K:bass] x4[K:treble] x4 | x8 | x8 | x8 | x8 | %77
[K:E] x8 | x8 |[K:bass] x8 | x/[K:treble] x7/2[K:bass] x[K:treble] x3 | %81
[K:bass] x11/3[K:treble] x13/3 | x8 | x8 | x8 | x8 | x8 | x8 |[K:bass] x8 | %89
 x2[K:treble] x2[K:bass] x4 | x81/10 | x8 | x8 | x8 | x8 | x8 | x8 | x8 | x8 | x8 | x8 | x8 | x8 | %103
 x8 | x8 | x4 x2 x x/ [B,,,E,,G,,B,,]/ | x2 x x/ x/ x2 x x/ [E,G,B,E]/ | x8 | x8 ||[M:2/4] x2 | %110
 x4 | x4 |[M:3/4] x6 |[M:2/4] x4 | x4 | x4 | x4 |[K:treble] x4 |[M:3/4] x6 | x6 |[M:2/4] x4 | x4 | %122
[M:3/4] x6 |[M:2/4][K:bass] x4 || x4 | x4 | x4 | x4 | x4 | x4 | x4 |[K:treble] x4 | x4 | x4 | x4 | %135
 x4 | x4 | x4 |[K:bass] x4 | x4 | x4 | x4 | x4 | x4 | x4 |[K:treble] x4 | x4 | x4 | x4 | x4 | x4 | %151
 x4 | x4 | x4 | x4 | x4 | x4 | x4 ||[K:C][M:2/4] x4 | x4 | x4 | x4 | x4 | x4 | x4 | x4 | x4 | x4 | %168
 x4 | x4 | x4 | x4 | x4 | x4 | x4 | x4 | x4 | x4 | x4 | x4 | x4 | x4 |[K:bass] x4 | x4 | x4 | x4 | %186
 x4 | x4 | x4 | x4 | x4 | x4 | x4 |[K:treble] x4 | x4 | x4 | x4 | x4 | x4 | x4 | x4 | x4 | x4 | %203
 x4 | x4 | x4 | x4 | x4 | x4 | x4 | x4 | x4 | x4 | x4 | x4 | x4 | x4 | x4 | x4 | x4 | x4 | x4 | %222
 x4 | x7/4[K:bass] x9/4 | x4 | x4 | x4 | x4 ||[K:Db] x4 |[K:treble] x4 | %230
[K:bass] x5/2[K:treble] x3/2 | x4 | x4 |[K:bass] x4 | x4 |[K:treble] x7/2[K:bass] x/ | %236
 x2[K:treble] x2 | x4 |[K:bass] x7/4[K:treble] x9/4 | x4 | x4 |[K:bass] x4 | x4 | x4 || %244
[K:E][K:treble] x4 | x4 | x3/2[K:bass] x[K:treble] x3/2 | x4 |[K:bass] x4 | x4 | x3!8va(! x!8va)! | %251
 x4 ||[K:F][K:treble] x4 | x4 | x7/4[K:bass] x5/4[K:treble] x | x4 | x4 | x4 | %258
[K:bass] x5/4[K:treble] x11/4 | x4 | x4 |[K:bass] x5/4[K:treble] x11/4 | x4 | x4 | x4 | x4 | x4 | %267
 x4 | x4 | x4 | x4 | x4 | x4 | x4 | x4 | x6 |:[M:2/4] x4 | x4 | x4 | x4 | x4 | x4 | x4 | x4 | x4 | %285
 x4 | x4 | x4 | x4 | x4 | x4 | x4 |[K:bass] x/[K:treble] x7/2 | x4 | x4 |[K:bass] x[K:treble] x3 | %296
[K:bass] x/[K:treble] x7/2 | x4 | x4 | x4 | x4 | x4 | x4 | x4 | x4 | x4 | x4 |1 x4 | x4 | x4 | x4 | %311
 x4 | x4 | x4 :|2 x4 ||[K:bass] x4 | x4 | x4 | x4 | x4 | x4 | x4 | x4 | x4 | x4 | x4 | x4 | x4 | %328
 x4 | x4 | x4 |[K:treble] x4 | x4 | x4 | x4 | x4 | x4 | x4 | x4 | x4 | x4 | x4 | x4 | x4 | x4 | %345
 x4 | x4 | x4 | x4 | x4 | x4 | x4 | x4 | x4 | x4 | x4 | x4 | x4 | x4 | x4 | x4 | x4 | x4 | x4 | %364
 x4 | x4 | x4 | x4 | x4 | x4 |[K:bass] x4 | x4 | x4 | x4 | x4 | x4 | x4 | x4 | x4 | x4 | x4 | %381
[K:treble] x4 | x4 | x4 | x4 | x4 | x4 | x4 | x4 | x4 | x4 | x4 | x4 | x4 | x4 | x4 | x4 | x4 | %398
 x4 | x4 | x4 | x4 | x4 | x4 | x4 | x4 | x4 | x4 | x4 | x4 | x4 | x4 | x4 | x4 | x4 | x4 | x4 | %417
 x4 | x4 | x4 | x4 | x4 | x4 | x4 | x4 | x4 | x4 | x4 | x4 | x4 ||[K:bass] x4 | x4 | x4 | x4 | x4 | %435
 x4 | x4 | x4 | x[K:treble] x3 | x4 | x4 | x4 | x4 | x4 | x4 | x4 | x4 | x4 | x4 | x4 | x4 | x4 | %452
 x4 | x4 | x4 | x4 | x4 | x4 | x4 | x4 | x4 | x4 | x4 | x4 | x4 | x4 | x4 | x4 | x4 | x4 | x4 | %471
 x4 | x4 | x4 | x4 |[K:bass] x4 | x4 | x4 | x4 | x4 | x4 | x4 | x4 | x4 | x4 | x4 | x4 | %487
[K:treble] x3[K:bass] x |[K:treble] x4 | x4 | x4 | x4 | x4 |[K:bass] x4 | x4 | x2[K:treble] x2 | %496
 x4 |[K:bass] x4 | x4 | x2[K:treble] x2 | x4 | x4 | x4 | x4 | x4 | x4 | x4 |[K:bass] x4 | x4 | x4 | %510
 x4 |] %511
V:6
 x8 | x8 | x8 | x8 | x8 | x8 | x8 | x8 | x8 | x8 | x8 | x8 | x8 | x8 | x8 | x8 | x5[K:treble] x3 | %17
[M:5/4] x10 | x10 |[M:4/4] x8 | x8 | x8 | x8 | x8 | x8 |[K:bass] x35/6[K:treble] x13/6 | %26
[M:5/4] x10 | x10 |[M:4/4] x8 | x8 |[K:bass] x8 | x8 | x8 | x8 | x8 | x8 | x8 | x8 | x8 | x8 | x8 | %41
 x2[K:treble] x6 | x8 | x2[K:bass] x6 | x8 | x8 | x8 | x2[K:treble] x11/2[K:bass] x/ ||[K:E] x8 | %49
 x8 | x8 | x8 | x8 | x8 | x8 | x8 | x8 | x8 | x8 | x8 | x8 | x8 | x8 | x8 | x8 || x8 | %66
 x3[K:treble] x5 |[K:bass] x2[K:treble] x2[K:bass] x[K:treble] x3 |[K:bass] x17/3[K:] x7/3 | %69
[K:bass] x3[K:treble] x5 |[K:bass] x3[K:treble] x5 | %71
[K:bass] x[K:treble] x3[K:bass] x[K:treble] x3 |[K:bass] x4[K:treble] x4 | x8 | x8 | x8 | x8 | %77
[K:E] x8 | x8 |[K:bass] x8 | x/[K:treble] x7/2[K:bass] x[K:treble] x3 | %81
[K:bass] x11/3[K:treble] x13/3 | x8 | x8 | x8 | x8 | x8 | x8 |[K:bass] x8 | %89
 x2[K:treble] x2[K:bass] x4 | x81/10 | x8 | x8 | x8 | x8 | x8 | x8 | x8 | x8 | x8 | x8 | x8 | x8 | %103
 x8 | x8 | x8 | x2 x x/ [B,,,D,,F,,B,,]/ x2 x x/ [E,,,G,,,B,,,E,,]/ | x8 | x8 ||[M:2/4] x2 | x4 | %111
 x4 |[M:3/4] x6 |[M:2/4] x4 | x4 | x4 | x4 |[K:treble] x4 |[M:3/4] x6 | x6 |[M:2/4] x4 | x4 | %122
[M:3/4] x6 |[M:2/4][K:bass] x4 || x4 | x4 | x4 | x4 | x4 | x4 | x4 |[K:treble] x4 | x4 | x4 | x4 | %135
 x4 | x4 | x4 |[K:bass] x4 | x4 | x4 | x4 | x4 | x4 | x4 |[K:treble] x4 | x4 | x4 | x4 | x4 | x4 | %151
 x4 | x4 | x4 | x4 | x4 | x4 | x4 ||[K:C][M:2/4] x4 | x4 | x4 | x4 | x4 | x4 | x4 | x4 | x4 | x4 | %168
 x4 | x4 | x4 | x4 | x4 | x4 | x4 | x4 | x4 | x4 | x4 | x4 | x4 | x4 |[K:bass] x4 | x4 | x4 | x4 | %186
 x4 | x4 | x4 | x4 | x4 | x4 | x4 |[K:treble] x4 | x4 | x4 | x4 | x4 | x4 | x4 | x4 | x4 | x4 | %203
 x4 | x4 | x4 | x4 | x4 | x4 | x4 | x4 | x4 | x4 | x4 | x4 | x4 | x4 | x4 | x4 | x4 | x4 | x4 | %222
 x4 | x7/4[K:bass] x9/4 | x4 | x4 | x4 | x4 ||[K:Db] x4 |[K:treble] x4 | %230
[K:bass] x5/2[K:treble] x3/2 | x4 | x4 |[K:bass] x4 | x4 |[K:treble] x7/2[K:bass] x/ | %236
 x2[K:treble] x2 | x4 |[K:bass] x7/4[K:treble] x9/4 | x4 | x4 |[K:bass] x4 | x4 | x4 || %244
[K:E][K:treble] x4 | x4 | x3/2[K:bass] x[K:treble] x3/2 | x4 |[K:bass] x4 | x4 | x3!8va(! x!8va)! | %251
 x4 ||[K:F][K:treble] x4 | x4 | x7/4[K:bass] x5/4[K:treble] x | x4 | x4 | x4 | %258
[K:bass] x5/4[K:treble] x11/4 | x4 | x4 |[K:bass] x5/4[K:treble] x11/4 | x4 | x4 | x4 | x4 | x4 | %267
 x4 | x4 | x4 | x4 | x4 | x4 | x4 | x4 | x6 |:[M:2/4] x4 | x4 | x4 | x4 | x4 | x4 | x4 | x4 | x4 | %285
 x4 | x4 | x4 | x4 | x4 | x4 | x4 |[K:bass] x/[K:treble] x7/2 | x4 | x4 |[K:bass] x[K:treble] x3 | %296
[K:bass] x/[K:treble] x7/2 | x4 | x4 | x4 | x4 | x4 | x4 | x4 | x4 | x4 | x4 |1 x4 | x4 | x4 | x4 | %311
 x4 | x4 | x4 :|2 x4 ||[K:bass] x4 | x4 | x4 | x4 | x4 | x4 | x4 | x4 | x4 | x4 | x4 | x4 | x4 | %328
 x4 | x4 | x4 |[K:treble] x4 | x4 | x4 | x4 | x4 | x4 | x4 | x4 | x4 | x4 | x4 | x4 | x4 | x4 | %345
 x4 | x4 | x4 | x4 | x4 | x4 | x4 | x4 | x4 | x4 | x4 | x4 | x4 | x4 | x4 | x4 | x4 | x4 | x4 | %364
 x4 | x4 | x4 | x4 | x4 | x4 |[K:bass] x4 | x4 | x4 | x4 | x4 | x4 | x4 | x4 | x4 | x4 | x4 | %381
[K:treble] x4 | x4 | x4 | x4 | x4 | x4 | x4 | x4 | x4 | x4 | x4 | x4 | x4 | x4 | x4 | x4 | x4 | %398
 x4 | x4 | x4 | x4 | x4 | x4 | x4 | x4 | x4 | x4 | x4 | x4 | x4 | x4 | x4 | x4 | x4 | x4 | x4 | %417
 x4 | x4 | x4 | x4 | x4 | x4 | x4 | x4 | x4 | x4 | x4 | x4 | x4 ||[K:bass] x4 | x4 | x4 | x4 | x4 | %435
 x4 | x4 | x4 | x[K:treble] x3 | x4 | x4 | x4 | x4 | x4 | x4 | x4 | x4 | x4 | x4 | x4 | x4 | x4 | %452
 x4 | x4 | x4 | x4 | x4 | x4 | x4 | x4 | x4 | x4 | x4 | x4 | x4 | x4 | x4 | x4 | x4 | x4 | x4 | %471
 x4 | x4 | x4 | x4 |[K:bass] x4 | x4 | x4 | x4 | x4 | x4 | x4 | x4 | x4 | x4 | x4 | x4 | %487
[K:treble] x3[K:bass] x |[K:treble] x4 | x4 | x4 | x4 | x4 |[K:bass] x4 | x4 | x2[K:treble] x2 | %496
 x4 |[K:bass] x4 | x4 | x2[K:treble] x2 | x4 | x4 | x4 | x4 | x4 | x4 | x4 |[K:bass] x4 | x4 | x4 | %510
 x4 |] %511
V:7
 z8 | z8 | z8 |[K:bass]!mf! [G,,B,,E,]3 [B,,^D,F,] .[B,,E,G,] [C,E,A,]3 | %4
 [E,G,B,]3 [E,A,C] .[E,G,B,] [C,E,A,]3 | G,7/2 F,/ F,7/2 E,/ | [G,,B,,E,]8- | [G,,B,,E,] z z2 z4 | %8
 [D,F,B,]3 [F,^A,^C] .[F,B,D] [G,B,E]3 | [B,DF]3 [G,EG] .[B,DF] [G,B,E]3 | D7/2 ^C/ C7/2 B,/ | %11
 [D,F,B,]8- | [D,F,B,] z z3/2[K:treble]!p! D/ D>D D>D |!<(! G3!mp! _B!<)! A G3 | %14
!>(! =F3!>)!!p! _E D G3 | D>D D>D D>!p!D D>D | [F,A,D]2 z2 z4 |[M:5/4] z10 | z10 |[M:4/4] z8 | z8 | %21
 z2 z3/2!p! B,/ B,>B, B,>B, | E3 G!mp! F E3 |!>(! D3 C!>)! B, E3 | [FA] [FA]2 [EG] [EG]7/2 [^DF]/ | %25
 [F,B,^DF]2 z2 z4 |[M:5/4] z10 | z10 |[M:4/4] z8 | z8 |!p! z8 |!<(! [^DFB]3!mp! [EAc]!<)! ^d e3 | %32
!>(! [Af]3!p! [Ge]!>)! [=FB=d] [EAc]3 | [EB]2 [Ee]2 B A3 | [B,EG]8 |!mp! [^A,^CEG]8 |!f! G8- | %37
 G2!p! F2 z4 | z8 | z8 | z8 | z8 | z8 | z8 | z8 | z8 | z8 | z8 ||[K:E] z8 | z8 | z8 | z8 | z4 z4 | %53
 z8 | z8 | z8 | z8 | z8 | z8 | z8 | z8 | z8 | z8 | z8 | z8 ||"^A"!f! E3 .F .G A3 | B3 .c .B A3 | %67
!f! z7/4 [Beg]/4 [Beg]2 z7/4 [Adf]/4 [Adf]2 | z7/4 [GBe]/4 [GBe]2 z4 | B3 c d e3 | f3 g f e3 | %71
 z7/4 [fbd']/4 [fbd']2 z7/4 [e^ac']/4 [eac']2 | z7/4 [dfb]/4 [dfb]2 z4 | [Ge]3 .[Bg] .[Af] [Ge]3 | %74
 [Fd]3 .[Ec] .[DB] [Ge]3 | [FA]7/2 [EG]/ [EG]7/2 [DF]/ | [DF]6 z2 | z8 | z8 | z8 | z8 | %81
 z2 z (3E/E/E/ .E.B,.E.G | [Ge]3 .[Bg] .[Af] [Ge]3 | [Fd]3 .[Ec] .[DB] [Ge]3 | %84
 [FA]7/2 [EG]/ [EG]7/2 [DF]/ | [DF]6 z2 | z8 | z8 | z8 | z8 | z2 z!<(! (3E/E/E/ .E.E.G!<)!.B | %91
"^B" x4 x2 (3eee |{/[Beb]} [Beb]3 .[cec'] .[Beb] [Aea]3 | [GBeg]4 [FBdf]4 | %94
 [EGBe]2 (6:4:6E/G/B/e/g/b/!ff! .[ee'] z z2!f! |{/[Bdfb]} [Bdfb]3 .[cf^ac'] .[dfbd'] [ebe']3 | %96
 [fbf']3 .[gbg'] .[fbf'] [ebe']3 |!ff! [dfbd']4 [cef^ac']4 | %98
 [B,DFB]2!mp!!<(! (6:4:6B/d/f/b/!8va(!d'/f'/!<)! .[bb']!8va)! z z2 | %99
!mf! [Ece]3 .[Geg] .[Fdf] [Ece]3 | [DBd]3 .[CAc] .[B,GB] [Ece]3 | %101
 [A,CFA]3 .[G,C^EG] [G,CEG]3 .[F,A,=DF] | z2!<(! (3=DDD .D.D.D!<)!.D | %103
 [B=d=gb]3 .[ce^ac'] .[^d=ab^d'] [e^gbe']3 | [fabf']3 .[ege'] .[df^bd'] [cec']3 | %105
 [Be=b]2 [ee']2 .[Beb] [Aea]3 | [Geg]/B/e/g/ .[gbe'g'] z{/[Fdff]} [Fdf]/B/d/f/ [dbd'f'] z | %107
!f!{/[Ee]} [Ee]/G/B/e/ [ge']/e/g/b/!8va(! [bg']/g/b/e'/ [e'b']/b/e'/g'/ | [e'g'e'']2!8va)! z2 z4 || %109
[M:2/4] z2 | z4 | z4 |[M:3/4] z6 |[M:2/4] z4 | z4 | z4 | z4 | z4 |[M:3/4] z6 | z6 |[M:2/4] z4 | %121
 z4 |[M:3/4] z6 |[M:2/4] z4 || z .[A,=DF] z .[B,DG] | z .[=CEA] z .[B,EB] | z .[=CE=c] z .[B,EB] | %127
 z .[A,=CA] z .[=G,^C=G] | z [=D=F] [^CE]2- | [CE] z z2 | x4 | z4 | x4 | x4 | %134
 z .[A,C=G].[A,=D^F].[A,CE] | z .[A,=DF] .[A,CE].[A,D] | z .[B,E=G] z .[A,CE] | %137
 z .[A,=DF].[A,CE].[A,D] | z .[A,=DF] z .[B,D^G] | z .[=CEA] z .[B,EB] | z .[=CE=c] z .[B,EB] | %141
 z .[A,=CA] z .[=G,C=G] | z .[A,=D=F] z2 | z2 !fermata!z2 | z4 | x4 | x4 | z4 | x4 | x4 | x4 | x4 | %152
 x4 | x4 | x4 | x4 | x4 | x4 ||[K:C][M:2/4] z4 | z4 | z4 | z4 | z4 | z4 | z4 | z4 | z4 | z4 | z4 | %169
 z4 | z4 | z4 | z4 | z4 |"^C" .[cfa].[ce_b] .[cfa] z | z4 | .[CFA].[_B,E_B].[A,FA] z | z4 | %178
 .[cfa].[ce_b].[cfa] x | z4 | .[CFA].[_B,E_B].[A,FA] z | z4 | z4 | z4 | z4 |!p! e.d'/ z/ .d'.d' | %186
 .d'/z/4c'/4.b/z/4a/4 .^g/z/4a/4.b/z/4=g/4 |{/b} .a/z/4^g/4.a/z/4b/4{/d'} .c'/z/4b/4.c'/z/4d'/4 | %188
 .^d'/z/4c'/4.f'/z/4e'/4 .=d'/z/4c'/4.b/z/4a/4 | e.d'/ z/ .d'.d' | %190
 .d'/z/4c'/4.b/z/4a/4 .^g/z/4a/4.b/z/4=g/4 |{/b} .a/z/4^g/4.a/z/4b/4 .e'/z/4e/4.^f/z/4g/4 | %192
{/b} .a/z/4^g/4.a/z/4b/4{/d'} .c'/z/4b/4.c'/z/4d'/4 | %193
!p!{/f'} !trill(!Te'/4!trill)!f'/4e'/4f'/4e'/4f'/4e'/4f'/4e'/4f'/4e'/4f'/4e'/4f'/4e'/4f'/4 | %194
 e'/4f'/4e'/4f'/4e'/4f'/4e'/4f'/4e'/4f'/4e'/4f'/4e'/4f'/4e'/4f'/4 | %195
 e'/4f'/4e'/4f'/4e'/4f'/4e'/4f'/4e'/4f'/4e'/4f'/4e'/4f'/4e'/4f'/4 | %196
 e'/4f'/4e'/4f'/4e'/4f'/4e'/4f'/4e'/4f'/4e'/4f'/4e'/4f'/4e'/4f'/4 | %197
 e'/4f'/4e'/4f'/4e'/4f'/4e'/4f'/4e'/4f'/4e'/4f'/4e'/4f'/4e'/4f'/4 | %198
 e'/4f'/4e'/4f'/4e'/4f'/4e'/4f'/4e'/4f'/4e'/4f'/4e'/4f'/4e'/4f'/4 | %199
 e'/4f'/4e'/4f'/4e'/4f'/4e'/4f'/4{/^d'} e'/z/4e/4^f/z/4^g/4 | .[ea]2 z2 | z4 |"^D"!p! A=g/ z/ gg | %203
 .g/z/4=f/4.e/z/4d/4 .^c/z/4d/4.e/z/4=c/4 |{/e} .d/z/4^c/4.d/z/4e/4{/g} .f/z/4e/4.f/z/4g/4 | %205
 .^g/z/4a/4._b/z/4a/4 .=g/z/4f/4.e/z/4d/4 | z2 .d.d | .d/z/4c/4.=B/z/4A/4 .^G/z/4A/4.B/z/4G/4 | %208
{/B} .A/z/4^G/4.A/z/4B/4{/d} .c/z/4B/4.d/z/4d/4 | .^d/z/4e/4.g/z/4e/4 .=d/z/4c/4.B/z/4A/4 | %210
 z2 z!p! A/^c/ | e>a e/>a/e/>a/ | f2 z d/f/ | a>d' a/>d'/a/>d'/ | a2 z F/A/ | c>f c/>f/c/>f/ | %216
 d2 z _B/d/ | f>_b f/>b/f/>b/ | g2 z!p! _e/g/ | _b>_e' b/>e'/b/>e'/ |!mp! c'2 c C/>E/ | %221
 [CG]>[cd] [CG]/>[cd]/[CG]/>[cd]/ | [C_A].[Fc]/ z/ .[Fc] F/>A/ | %223
 [Fc]>[_Af] [Fc]/>[Af]/[Fc]/>[Af]/ |!f! [EGc]2 z [Ec]/>[Ge]/ | %225
 [cg]>[_bc'] [cg]/>[bc']/[cg]/>[bc']/ | [c_a][cfc']/ z/ [cfc'] [cf]/>a/ | %227
 [cfc']>[_af'] [fc']/>[af']/[fc'] ||[K:Db]"^E""^Molto animato" [dfad']3 .[eac'e'] | %229
 .[fad'f'] [gbd'g']3 | [ad'f'a']3 .[bd'f'b'] | .[ad'f'a'] [gbd'g']3 | [fad'f']4 | [eac'e']4 | %234
 .[dfad']2 z2 | z4 | [Acea]3 .[Beb] | .[ceac'] [dfad']3 | [eac'e']3 .[faf'] | .[eac'e'] [dfad']3 | %240
 [ceac']4 | [Be=gb]4 | .[Acea]2 z2 | z4 ||[K:E] z4 | z4 | z4 | z4 | z4 | z4 | z4 | !fermata!z4 || %252
[K:F] z4 | z4 | z4 | z4 | z4 | z4 | z4 | z2 z!p! _D/F/ | _A>_d A/>d/A/>d/ | _A2 z2 | %262
 z2 z!pp! _d/f/ | _a>_d' a/>d'/a/>d'/ | _a2 !fermata!z2 | x4 | x4 | x4 | x4 | x4 | x4 | z4 | z4 | %273
 z4 | z4 | z6 |:[M:2/4] z .[B,E] z .[B,C] | z .[A,F] z .[A,C] | z .[B,E] z .[B,C] | %279
 z .[A,F] z .[A,C] | z .[B,E] z .[B,C] | z .[A,F] z .[A,C] | z .[B,E] z .[B,C] | z .[A,C] z2 | %284
 z .[CEB] z .[CEG] | z2 .[Aa].c | [Gg]2 .[Gg].c | .[Ff]2 z2 | z .[CEB] z .[CEG] | z2 .[Aa].c | %290
 [Gg]2 .[Gg].c | .[Ff]2 z2 | z4 | [Ae]2 [Ae]2 | [Ae]2 [Ae]2 | z4 | z4 | [Ae]2 [Ae]2 | [Ae]2 [Ae]2 | %299
 z4 | [da]2 [da]2 | [ae']2 [ae']2 | [ae']2 [ae']2 | [da]2 [da]2 | [da]2 [da]2 | [ae']2 [ae']2 | %306
 [ae']2 [ae']2 |1 [da]2 z2 | z4 | z4 | z4 | z4 | z4 | z4 :|2"^F" [da]2 z!ff! a/4_b/4^c'/4d'/4 || %315
 [a^c'e']>^f' [ac'e']>f' | [a^c'e']>^f' [ac'e']/f'/[ac'e']/f'/ | %317
 [a^c'e']/^f'/[ac'e']/f'/ [ac'e']/f'/[ac'e']/f'/ | [a^c'e']/^f'/[ac'e']/f'/ [ac'e']/f'/g'/f'/ | %319
 [d^fd']>a [dfd']>a | [d^fd']>a [fd']/e'/[fad']/e'/ | [^fad']/e'/[fad']/e'/ [fad']/e'/[fad']/e'/ | %322
 [^fad']/e'/[fad']/e'/ [fad']/e'/[fad']/e'/ | d'/e'/d'/=c'/ [=B=b]>[^d^f] | %324
 [=B=b]>[^d^f] [Bb]/[df]/[Bb]/[df]/ | [=B=b]/[^d^f]/[Bb]/[df]/ [Bb]/[df]/[Bb]/[df]/ | %326
 [=B=b]/[^d^f]/[Bb]/[df]/ [Bb]/[df]/[Bb]/z/4b/4 | =d'/=c'/=b/c'/ [Aa]>[^ce] | %328
 [Aa]>[^ce] [Aa]/[ce]/[Aa]/[ce]/ | [Aa]/[^ce]/[Aa]/[ce]/ [Aa]/[ce]/[Aa]/[ce]/ | .[A^cea] z z2 | %331
 z4 | z4 | z2 .[A^ce] z | .[^ca] z .[e^c'] z | z4 | z4 | z2 .[d^f] z | .[da] z .[^fd'] z | z4 | %340
 z4 | z2 .[^d^f] z | .[^d=b] z .[^f^d'] z | z4 | z2 .[^ca] z | .[e^c'] z .[ae'] z | z4 | z4 | z4 | %349
 z .[CE] z .[B,D] | z .[A,^C] z .[A,=C] | z .[G,=B,] z .[G,_B,] | z .A, z .[F,D] | %353
 z .[CE] z .[B,D] | z .[A,^C] z .[A,=C] | z .[G,=B,] z .[G,_B,] | z .A,.F z | z .[G,CE] z .[B,DE] | %358
 z .[A,^CE] z .[A,=C^F] | z .[=B,DG] z .[_B,EG] | z .[A,F] z .[_A,DF] | z .[G,CE] z .[B,DE] | %362
 z .[A,^CE] z .[A,=C^F] | z .[=B,DG] z .[_B,CE] | z [A,CF] z!ff! a/4=b/4=c'/4d'/4 | %365
 [a^c'e']>^f' [ac'e']>f' | [a^c'e']>^f' [ac'e']/f'/[ac'e']/f'/ | %367
 [a^c'e']/^f'/[ac'e']/f'/ [ac'e']/f'/[ac'e']/f'/ | [a^c'e']/^f'/[ac'e']/f'/ [ac'e']/f'/g'/f'/ | %369
 [d^fd']>a [dfd']>a | [d^fd']>a [fd']/e'/[fad']/e'/ | [^fad']/e'/[fad']/e'/ [fad']/e'/[fad']/e'/ | %372
 [^fad']/e'/[fad']/e'/ [fad']/e'/[fad']/e'/ | d'/e'/d'/=c'/ [=B=b]>[^d^f] | %374
 [=B=b]>[^d^f] [Bb]/[df]/[Bb]/[df]/ | [=B=b]/[^d^f]/[Bb]/[df]/ [Bb]/[df]/[Bb]/[df]/ | %376
 [=B=b]/[^d^f]/[Bb]/[df]/ [Bb]/[df]/[Bb]/z/4b/4 | =d'/=c'/=b/c'/ [Aa]>[^ce] | %378
 [Aa]>[^ce] [Aa]/[ce]/[Aa]/[ce]/ | [Aa]/[^ce]/[Aa]/[ce]/ [Aa]/[ce]/[Aa]/[ce]/ | .[A^cea] z z2 | %381
 z4 | z2!p! .A.^c | e7/2 a/ | e>a e>a | .e.^c .A.c | e2 .a z | z4 | z2 .d.^f | [da]7/2 [^fd']/ | %390
 [da]>[^fd'] [da]>[fd'] | .a.^f .d.f | [da]2 [^fd'] z | z4 | z2 .^d.[d^f] | [^d^f=b]7/2 ^d'/ | %396
 [^d^f=b]>^d' [dfb]>d' | .[^d=b].^f.d.f | [^f=b]2 .[b^d'] z | z4 | z2 .a.^c' | [ae']7/2 a'/ | %402
 [a^c'e']>a' [ac'e']>a' | .[ae'].^c'.a.c' | [ae']2 .[a^c'a'] z | z4 | z4 | z =C/E/ z _B,/=D/ | %408
!>(! z A,/!p!^C/ =C/A,/ z!>)! | z G,/=B,/ _B,/G,/ z | z F,/A,/ z _A,/D/ | z!<(! C/E/ z B,/D/!<)! | %412
!>(! z =A,/!p!^C/ =C/A,/!>)! z | z G,/=B,/ _B,/G,/ z | z A,/C/ .F z |!p! z G,/[CE]/ z B,/[DE]/ | %416
 z A,/[^CE]/ z [=C^F]/A,/ | z =B,/[DG]/ z [CE]/_B,/ | z A,/[CF]/ z _A,/[DF]/ | %419
 z G,/[CE]/ z _B,/[DE]/ | z =A,/[^CE]/ z [=C^F]/A,/ | z =B,/[DG]/ z [CE]/_B,/ | %422
 z A,/!mf![CF]/ z3/2!ff!"^I" [cc']/ |"^Frisch" [cc']b/b'/ a/a'/^g/^g'/ | a'c' a'/ x/ x | %425
 [gg']c' g'/ x/ x | [ff']c' (5:4:5[ff']/g'/f'/e'/d'/ | [cc']b/b'/ a/a'/^g/^g'/ | [aa']c' a'/ x/ z | %429
 [gg']c' g'/ x/ x ||!fff! .[faf'] z .F.c | c>f c>f | [F_A_d] z _DF | _A>_d A>d | [F=Acf] z!f! FA | %435
 c>f c>f |!ff! [Ad^f] z D^F | A>d A>d |!ff! [^A^c^f] z!f! _G_B | _d>_g d>g | %440
 [B_g]>[_db] [Bg]>[db] | [_db]>[_g_d'] [gd']>[b_g'] | [_g_d']>[b_g'] [gd']>"^J"[bg'] | %443
 .[_g_d'] z z2 | z2 z!p! ._d | b/_a/_g/f/ g/a/b/g/ | .fz/_d/ ._az/_g/ | .fz/_d/ ._d'z/f/ | %448
 ._g z z _d | b/_a/_g/f/ g/a/b/g/ | .=ez/c/ .=gz/f/ | .ez/c/ .c'z/e/ | .f z z .c | %453
 b/_a/_g/f/ g/a/b/g/ | .fz/_d/ ._az/_g/ | .fz/_d/ ._d'z/f/ | ._g z z ._d | b/_a/_g/f/ g/a/b/g/ | %458
 .=ez/c/ .=gz/f/ | .ez/c/ .c'z/e/ | .fz/c/ .az/g/ | .fz/c/!<(! .az/f/ | %462
 ._gz/!<)!!mp!_d/!mp! .bz/f/ | .=ez/c/ .c'z/e/ | .fz/c/ .az/g/ | .fz/c/ .az/f/ | ._gz/_d/ .bz/f/ | %467
 .=ez/c/ .c'z/e/ | .fz/c/ .az/f/ | ._gz/!mf!f/ .=ez/c'/ | .fz/c/ .az/f/ | ._gz/!f!f/ .e!f! F/f/ | %472
 ^F/^f/G/g/ ^G/^g/A/a/ | B/b/=B/=b/ c/c'/^c/^c'/ | d/d'/^d/^d'/ [eb]/e'/[eb]/e'/ | %475
"^K" [eb]/e'/[eb]/e'/ [eb]/e'/[eb]/e'/ | [eb]/e'/[eb]/e'/ [eb]/e'/[eb]/e'/ | %477
 [eb]/e'/[eb]/e'/ [eb]/e'/[eb]/e'/ |!fff!!8va(! [e^g=be']3 .[^fb^f'] | .[^g=b^g'] [a^c'=e'a']3 | %480
 [=be'=b']3 .[^c'e'^c''] | .[=be'=b'] [a^c'e'a']3 | [^g=be'^g']4 | [=b^d'^f'=b']4 | %484
 .[e'^g'=b'e''] z [=f'^g'=d''=f'']!8va)! z | z4 | z4 | z4 | z4 | z4 | z2 z f/4g/4a/4b/4 | %491
 [cc'] z z!ff!!<(! (3c'/d'/e'/!<)! |!f! [af']/f/[af']/f/ [af']/f/[af']/f/ | %493
 [af']/f/[af']/f/ [af']/f/[af']/f/ | [_a_d'f']/f/[ad'f']/f/ [ad'f']/f/[ad'f']/f/ | %495
 [b_d'f']/f/[bd'f']/f/ [bd'f']/f/[bd'f']/f/ | [af']/f/[af']/f/ [af']/f/[af']/f/ | %497
 [af']/f/[af']/f/ [af']/f/[af']/f/ | [_a_d'f']/f/[ad'f']/f/ [ad'f']/f/[ad'f']/f/ | %499
 [b_d'f']/f/[bd'f']/f/ [bd'f']/f/[bd'f']/f/ | [c'f'a']/a/[c'f'a']/a/ [c'f'a']/a/[c'f'a']/a/ | %501
 [c'f'a']/a/[c'f'a']/a/ [ac'f'a']>[ac'f'a'] | [c'f'a']/a/[c'f'a']/a/ [c'f'a']/a/[c'f'a']/a/ | %503
 [c'f'a']/a/[c'f'a']/a/ [ac'f'a']>[ac'f'a'] | [c'f'a']/!ff!a/[c'f'a']/a/ [c'f'a']/a/[c'f'a']/a/ | %505
 [c'f'a']/a/[c'f'a']/a/!fff! [ac'f'a']>[ac'f'a'] | [ac'f'a']2 z2 |!fff! .[ac'f'a']2 z2 | %508
 .[ac'f'a']2 z2 | .[ac'f'a']2 z2 |{/!fermata!C!fermata!D!fermata!E} !fermata!F4 |] %511
V:8
!p!!ped! E,,,/4E,,/4E,,,/4E,,/4E,,,/4E,,/4E,,,/4E,,/4E,,,/4E,,/4E,,,/4E,,/4E,,,/4E,,/4E,,,/4E,,/4!ped-up! .E,,, z/!mf! [B,,,,B,,,]/ .[C,,,C,,].[^D,,,^D,,] | %1
!p!!ped! E,,,/4E,,/4E,,,/4E,,/4E,,,/4E,,/4E,,,/4E,,/4E,,,/4E,,/4E,,,/4E,,/4E,,,/4E,,/4E,,,/4E,,/4!ped-up! .E,,, z/!mf! [B,,,,B,,,]/ .[C,,,C,,].[^D,,,^D,,] | %2
!p!!ped! E,,,/4E,,/4E,,,/4E,,/4E,,,/4E,,/4E,,,/4E,,/4E,,,/4E,,/4E,,,/4E,,/4E,,,/4E,,/4E,,,/4E,,/4!ped-up! .E,,, z/!mf! [B,,,,B,,,]/ .[C,,,C,,].[^D,,,^D,,] | %3
!p!!ped! E,,,/4E,,/4E,,,/4E,,/4E,,,/4E,,/4E,,,/4E,,/4E,,,/4E,,/4E,,,/4E,,/4E,,,/4E,,/4E,,,/4E,,/4!ped-up! .E,,, z/!mf! [B,,,,B,,,]/ .[C,,,C,,].[^D,,,^D,,] | %4
!p!!ped! E,,,/4E,,/4E,,,/4E,,/4E,,,/4E,,/4E,,,/4E,,/4E,,,/4E,,/4E,,,/4E,,/4E,,,/4E,,/4E,,,/4E,,/4!ped-up! .[E,,,E,,] z/!mf! [B,,,,B,,,]/ .[C,,,C,,].[^D,,,^D,,] | %5
 [E,,,E,,] z/ .[F,,,F,,]/ .[G,,,G,,] .[^A,,,^A,,] .[B,,,B,,] z/ [B,,,B,,]/ .[C,,C,].[^D,,^D,] | %6
!p!!ped!!<(! E,,,/4E,,/4E,,,/4E,,/4E,,,/4E,,/4E,,,/4E,,/4E,,,/4E,,/4E,,,/4E,,/4E,,,/4E,,/4!<)!E,,,/4!f!E,,/4E,,,/4E,,/4!>(!E,,,/4E,,/4E,,,/4E,,/4E,,,/4E,,/4E,,,/4E,,/4E,,,/4E,,/4E,,,/4E,,/4E,,,/4!p!E,,/4!ped-up!!>)! | %7
 E,,, z z2 z3/2!mf! [F,,,F,,]/ .[G,,,G,,].[^A,,,^A,,] | %8
!p!!ped! B,,,/4B,,/4B,,,/4B,,/4B,,,/4B,,/4B,,,/4B,,/4B,,,/4B,,/4B,,,/4B,,/4B,,,/4B,,/4B,,,/4B,,/4!ped-up! .B,,,!mf! z/ [F,,,F,,]/ .[G,,,G,,].[^A,,,^A,,] | %9
!p!!ped! B,,,/4B,,/4B,,,/4B,,/4B,,,/4B,,/4B,,,/4B,,/4B,,,/4B,,/4B,,,/4B,,/4B,,,/4B,,/4B,,,/4B,,/4!ped-up! .B,,, z/!mf! [F,,,F,,]/ .[G,,,G,,].[^A,,,^A,,] | %10
 [B,,,B,,] z/ [^C,,^C,]/ .[D,,D,] .[^E,,^E,] .[F,,F,] z/ [F,,,F,,]/ .[G,,,G,,].[^A,,,^A,,] | %11
!p!!ped!!<(! B,,,/4B,,/4B,,,/4B,,/4B,,,/4B,,/4B,,,/4B,,/4B,,,/4B,,/4B,,,/4B,,/4B,,,/4B,,/4!<)!B,,,/4!f!B,,/4B,,,/4!>(!B,,/4B,,,/4B,,/4B,,,/4B,,/4B,,,/4B,,/4B,,,/4B,,/4B,,,/4B,,/4B,,,/4B,,/4B,,,/4!p!B,,/4!ped-up!!>)! | %12
 .[B,,,B,,] z z2 z4 | _B,3 D C B,3 | A,3 G, ^F, _B,3 |!mp! D,8 | [D,,D,]2 z2 z4 | %17
[M:5/4][K:treble] z10 | z10 |[M:4/4] z8 | z8 | z8 |[K:bass]!<(! G,3 B,!<)! B, G,3 | %23
 F,3 E,!p! ^D, G,3 | B,,8 | [B,,,B,,]2 z2 z4 |[M:5/4] z10 |[K:bass] z10 |[M:4/4] z8 | z8 | %30
 z4 z3/2 B,/ B,>B, | B,4 B,>B, B,>B, | B,4 x4 | B,4 B, A,3 | %34
!ped! B,,,/4B,,/4B,,,/4B,,/4B,,,/4B,,/4B,,,/4B,,/4B,,,/4B,,/4B,,,/4B,,/4B,,,/4B,,/4B,,,/4B,,/4!ped-up! .B,,, z/!f! [B,,,,B,,,]/ .[C,,,C,,].[^D,,,^D,,] | %35
!p!!ped! E,,,/4!<(!E,,/4E,,,/4E,,/4E,,,/4E,,/4E,,,/4E,,/4 E,,,/4E,,/4E,,,/4E,,/4E,,,/4E,,/4E,,,/4E,,/4!ped-up! .E,,, z/!f! [F,,,F,,]/ .[G,,,G,,]!<)!.[^A,,,^A,,] | %36
!f!!ped!!>(! B,,,/4B,,/4B,,,/4B,,/4B,,,/4B,,/4B,,,/4B,,/4B,,,/4B,,/4B,,,/4B,,/4B,,,/4B,,/4B,,,/4B,,/4B,,,/4B,,/4B,,,/4B,,/4B,,,/4B,,/4B,,,/4B,,/4B,,,/4B,,/4B,,,/4B,,/4B,,,/4B,,/4B,,,/4!p!B,,/4!>)! | %37
 .B,,, z z2!ped-up! z4 | z8 | z8 | z8 | z8 | z8 | z8 | z8 | z8 | z8 | z8 ||[K:E] z8 | z8 | z8 | %51
 z8 | z8 | z8 | z8 | z8 | z8 | z8 | z8 | z8 | z8 | z8 | z8 | z8 | z8 || z8 | z8 | %67
!ped! E4!ped-up!!ped! B,4!ped-up! |!ped! E,4-!ped-up!!ped! E,2 z2!ped-up! | z8 | z8 | %71
[K:treble]!ped! B4!ped-up!!ped! F4!ped-up! |[K:bass]!ped! B,4- B,2!ped-up! z2 | %73
[K:treble]!ped! B4!ped-up!!ped! B,4!ped-up! |!ped! B4!ped-up!!ped! B,4!ped-up! | %75
[K:bass] [F,C]7/2 [G,B,]/ [G,B,]7/2 B,/ | B,6 z2 | z8 | z8 | z8 | z8 | %81
 z2 z!f! (3E,/E,/E,/ .E,.B,,.E,.G, |[K:treble] B4 B,4 | B4 B,4 | %84
[K:bass] [F,C]7/2 [G,B,]/ [G,B,]7/2 B,/ | B,6 z2 | z8 | z8 | z8 | z8 | %90
 z2 z!f! (3E,/E,/E,/ .E,.E,.G,.B, |!ff!!ped! [G,,B,,]3!ped-up! .[B,,D,F,B,] .[E,G,B,E] [C,E,A,C]3 | %92
 [G,,G,]3 .[C,G,C] .[G,,G,] [C,,C,]3 | %93
!ped! B,,,/4B,,/4B,,,/4B,,/4B,,,/4B,,/4B,,,/4B,,/4 B,,,!ped-up! z [D,F,B,]4 | %94
!ped! [E,,G,,B,,E,]2!mp!!<(! (6:4:6E,/B,,/G,,/E,,/B,,,/G,,,/!<)! .[E,,,E,,]!ped-up! z z2 | %95
!ped! [D,F,]3!ped-up! .[F,,F,] .[B,,B,] [G,,G,]3 |!ped! B,,3!ped-up! .[G,,D,G,] .[D,,D,] [G,,G,]3 | %97
!ped! [B,,D,]4!ped-up!!ped! [A,,,C,,]4!ped-up! | %98
!ped! [B,,D,F,B,]2 (6:4:6B,/F,/D,/B,,/F,,/D,,/!ff! .[B,,,B,,]!ped-up! z z2 | %99
 [C,E,C]3 .[E,G,E] .[D,F,D] [C,E,C]3 | [B,,D,B,]3 .[A,,C,A,] .[G,,B,,G,] [C,E,C]3 | %101
 [F,,F,]3 [C,,C,] [C,,C,]3 [=D,,=D,] | z4 z!f! .A,.F,.=D, | %103
!ped! [B,,=D,]2 z!ped-up! .[=G,^A,CE] .[F,=A,B,F]!ped! [E,^G,B,E]3!ped-up! | %104
!ped! B,,3!ped-up! .[E,,B,,E,] .[A,,A,]!ped! [A,CE]3!ped-up! | %105
!ped! [G,,E,G,]2 [E,,B,,E,]2!ped-up! .[G,,E,G,]!ped! [C,E,C]3!ped-up! | %106
!ped! [B,,B,]/G,/E,/B,,/ .[B,,,B,,] z!ped-up!!ped!{/[B,,B,]} [B,,B,]/F,/D,/B,,/ [B,,,B,,] z!ped-up! | %107
!<(!!ped!{/[E,G,B,]} .[E,G,B,]2 .[E,,G,,B,,E,]2 .[B,,,E,,B,,]2 .[G,,,E,,G,,]2!<)!!ped-up! | %108
!fff! .[E,,,B,,,E,,]2 z2 z4 ||[M:2/4] z2 | z4 | z4 |[M:3/4] z6 |[M:2/4] z4 | z4 | z4 | z4 | z4 | %118
[M:3/4] z6 | z6 |[M:2/4] z4 | z4 |[M:3/4] z6 |[M:2/4][K:treble] z4 || %124
[K:bass]!f! z .[=D,,=D,] z .[B,,,B,,] | z .[E,,E,] z .[G,,G,] | z .[A,,E,A,] z .[=G,,=G,] | %127
 z .[=F,,=C,=F,] z .[E,,E,] | z A,,3- | A,, z z2 | x4 | z4 | x4 | x4 | %134
 z!f! .[E,,E,].[=D,,=D,].[A,,,A,,] | z .[=D,,=D,].[=G,,=G,].[F,,F,] | z .[=G,,=G,] z .A,, | %137
 z .[=D,,=D,].[=G,,=G,].[F,,F,] | z .[=D,,=D,] z .[B,,,B,,] | z .[E,,E,] z .[^G,,^G,] | %140
 z .[A,,E,A,] z .[=G,,=G,] | z .[=F,,=C,=F,] z .[E,,E,] | z .[=D,,=D,] z2 | z2 !fermata!z2 | z4 | %145
 x4 | x4 | z4 | x4 | x4 | x4 | x4 | x4 | x4 | x4 | x4 | x4 | x4 ||[K:C][M:2/4] z4 | z4 | z4 | z4 | %162
 z4 | z4 | z4 | z4 | z4 | z4 | z4 | z4 | z4 | z4 | z4 | z4 |[K:treble]!f! .[FA].[CG] .[FA] z | z4 | %176
[K:bass]!p! .[F,A,].[C,G,] .[F,,C,F,] z | z4 |[K:treble]!f! .[FA].[CG].[FA] z | z4 | %180
[K:bass]!p! .[F,A,].[C,G,] .[F,,C,F,] z | z4 | z4 | z4 | z4 | %185
[K:treble]!p!!<(! ^G,2!<)!!mp! !arpeggio!.[DEB] z | %186
[K:bass]!p!!<(! E,2!<)![K:treble]!mp! !arpeggio!.[B,E^G] z | %187
!p!!<(! A,2!<)!!mp! !arpeggio!.[CEA] z |[K:bass]!p!!<(! E,2!<)!!mp! !arpeggio!.[CEA] z | %189
!p!!<(! ^G,2[K:treble]!<)!!mp! !arpeggio!.[DEB] z | %190
[K:bass]!p!!<(! E,2!<)![K:treble]!mp! !arpeggio!.[B,E^G] z | %191
[K:bass] .A,[K:treble].[Ec][K:bass] .E,[K:treble].[DEB] | .A,.[CEA]/ z/ z2 |!mf! [^Ge]2!f! .b z | %194
!mf! [EB].e/ z/{/^d} .e{/d}.e |!ped!!<(! [Ae]2!<)!!f! .c' z!ped-up! |!mf! [Ec].e/ z/ .e.e | %197
!ped!!<(! [^Ge]2!<)!!f! .b z!ped-up! |!mf! [EB].e/ z/{/^d} .e{/d}.e | [Ac].e/ z/ .[E^GB] z | %200
!f! .[A,EA]2 z2 | z4 |"^tranquillo" z4 | z4 | z4 | z4 | E.d/ z/ z2 | z4 | z4 | z4 | A,.G/ z/ .G.G | %211
 .G/z/4F/4.E/z/4D/4 .^C/z/4D/4.E/z/4C/4 |{/E} .D/z/4^C/4.D/z/4E/4{/G} .F/z/4E/4.F/z/4G/4 | %213
 .^G/z/4A/4._B/z/4A/4 .=G/z/4F/4.E/z/4D/4 |[K:bass] F,._E/ z/ .E.E | %215
 ._E/z/4D/4.C/z/4_B,/4 .A,/z/4B,/4.C/z/4A,/4 | _B,[K:treble]._A/ z/ .A.A | %217
 ._A/z/4G/4.F/z/4_E/4 .D/z/4E/4.F/z/4D/4 | _E._d/ z/ .d.d | ._d/z/4c/4._B/z/4_A/4 .G/z/4A/4F | %220
[K:bass] C,._B,/ z/ .B,.B, | ._B,/z/4_A,/4.G,/z/4F,/4 .=E,/z/4F,/4.G,/z/4E,/4 | %222
 .F,/.E,/.F,/.G,/ ._A,/.G,/.A,/._B,/ | ._A,/.C/._D/.C/ ._B,/.A,/.G,/.F,/ | %224
 [C,,C,].[_B,,_B,]/ z/ .[B,,B,].[B,,B,] | %225
 [_B,,_B,]/[_A,,_A,]/[G,,G,]/[F,,F,]/ [E,,E,]/[F,,F,]/[G,,G,]/[E,,E,]/ | %226
 [F,,F,]/[E,,E,]/[F,,F,]/[G,,G,]/ [_A,,_A,]/[G,,G,]/[A,,A,]/[_B,,_B,]/ | %227
 [_A,,_A,][A,CF_A][A,CFA][A,CFA] ||[K:Db]!ff! [D,F,A,D]3 .[A,,C,E,A,] | .[D,F,A,D] [B,,D,G,B,]3 | %230
 [D,F,A,D]3 .[B,,F,B,] | .[D,F,A,D] [G,,B,,D,G,]3 | [A,,D,F,A,]4 | [A,CEA]4 | .[D,F,A,D]2 z2 | z4 | %236
 [A,,C,E,A,]3 .[=G,,E,=G,] | .[A,,E,A,] [F,,A,,D,F,]3 | [A,,C,A,]3 .[F,,C,F,] | %239
 .[A,,C,A,] [D,,A,,D,]3 | [E,,A,,C,E,]4 | [E,=G,B,E]4 | .[A,,C,E,A,]2 z2 | z4 ||[K:E] z4 | z4 | %246
 z4 | z4 | z4 | z4 | z4 | !fermata!z4 ||[K:F] z4 | z4 | z4 | z4 |!ped! z4!ped-up! | z4 | z4 | %259
 z4!ped! | z4!ped-up! | z4 | z4!ped! | z4!ped-up! | z4 | x4 | !fermata!z4 | x4 | x4 | x4 | x4 | %271
 z4 | z4 | z4 | z4 | z6 |:[M:2/4]!mp! .C, z .E, z | .C, z .F, z | .C, z .E, z | .C, z .F, z | %280
 .C, z .E, z | .C, z .F, z | .C, z .E, z | .F, z F2 | .C, z .B, z | .C,.C.[A,F].C | .C,.C.[B,E].C | %287
 .C,.C.[A,F].C | .C, z .B, z | .C,.C.[A,F].C | .C,.C.[B,E].C | .C,.C.[A,F].C | %292
[K:treble]!mf! [DA]2 [DA]2 | z4 | z4 | [DA]2 [DA]2 | [DA]2 [DA]2 | z4 | z4 | [DA]2 z2 | z4 | z4 | %302
 z4 | z4 | z4 | z4 | z4 |1 z4 | z4 | z4 | z4 | z4 | z4 | z4 :|2 z4 || %315
[K:bass]!ped! [E,A,^CE]2[K:treble] [EA^ce]2 |[K:bass] z/ E/^C/A,/ E,/E,/^C,/A,,/ | .E,,.A,,.E,.A, | %318
 .E.A.E.A,!ped-up! |!ped! [D,^F,A,D]2[K:treble] [D^FA]2 |[K:bass] z/ D/A,/^F,/ D,/D,/A,,/^F,,/ | %321
 .D,,.A,, .D,.A, | .D.A .D.A,!ped-up! | D/E/D/=C/!ped! [=B,,^D,^F,=B,]2 | %324
 .[^D,^D].=B, .[=B,,B,].^F, | .[^F,,^F,].^D, .[^D,,D,].=B,, | %326
 [=B,,,=B,,]2 [^F,=B,^D] z3/4 _B,/4!ped-up! | =D/=C/=B,/C/!ped! [A,^CE]2 | %328
 .[^C,^C].A, .[A,,A,].E, | .[E,,E,].^C, .[^C,,C,].A,,!ped-up! | .[A,,,^C,,E,,A,,] z z2 | z4 | z4 | %333
[K:treble] z2!p! .E z | .E z .[EA] z | z4 | z4 | z2 .[DA] z | .[D^F] z .[DA] z | z4 | z4 | %341
 z2 .[=B,=B] z | .[=B,^F] z .[B,=B] z | z4 | z2 .[A,E] z | .[A,A] z .[A^c] z | z4 | z4 | z4 | %349
[K:bass]!mp! x .G, x .F, | x .E, x .E, | x .D, x .D, | x .C, x ._A, | x .G, x .F, | x .E, x .E, | %355
 x .D, x .D, | x .C, z2 | .C, z .B,, z | .A,, z .D, z | .G,, z .C, z | .F,, z .=B,, z | %361
 .C, z ._B,, z | .A,, z .D, z | .G,, z .C, z | F,, z F, z |!ped! [E,A,^CE]2[K:treble] [EA^ce]2 | %366
[K:bass] z/ E/^C/A,/ E,/E,/^C,/A,,/ | .E,,.A,,.E,.A, | .E.A.E.A,!ped-up! | %369
!ped! [D,^F,A,D]2[K:treble] [D^FA]2 |[K:bass] z/ D/A,/^F,/ D,/D,/A,,/^F,,/ | .D,,.A,, .D,.A, | %372
 .D.A .D.A,!ped-up! | D/E/D/=C/!ped! [=B,,^D,^F,=B,]2 | .[^D,^D].=B, .[=B,,B,].^F, | %375
 .[^F,,^F,].^D, .[^D,,D,].=B,, | [=B,,,=B,,]2 [^F,=B,^D] z3/4!ped-up! _B,/4 | %377
 =D/=C/=B,/C/!ped! [A,^CE]2 | .[^C,^C].A, .[A,,A,].E, | .[E,,E,].^C, .[^C,,C,].A,,!ped-up! | %380
 .[A,,,^C,,E,,A,,] z z2 | z4 | z4 |[K:treble] z2 .[E^c] z | .[EA] z .[E^c] z | z4 | z4 | z4 | %388
 z2 .^F.A | z2 .[DA] z | .[D^F] z .[DA] z | .d.A .^F.A | z4 | z4 | z2 .^F.=B | z2 .[=B,=B] z | %396
 .[=B,^F] z .[B,=B] z | z .=B.^F.B | ^d2 .^f z | z4 | z2 .[E^c].[Ae] | .^c z .[A,^CE] z | %402
 .[A,EA] z .[A^c] z | .^c.[Ae].[Ec].[Ae] | ^c2 .e z | z4 | z4 | %407
[K:bass]!p! =C,/G,/ z _B,,/!mp!=F,/ z | A,,/E,/ z z E,/A,,/ |!p! G,,/D,/ z z D,/G,,/ | %410
 F,,/!<(!C,/ z =B,,/!mp!F,/ z!<)! |!p! A,,/G,/ z _B,,/!mp!F,/ z | =A,,/E,/ z z E,/A,,/ | %413
 G,,/D,/ z z D,/G,,/ | F,,/C,/.F, z2 | .C, z .B,, z | .A,, z .D, z | .A,, z .C, z | %418
 .F,, z .=B,, z | .C, z ._B,, z | .=A,, z .D, z | .G,, z .C, z |!p!!<(! .F,,!mp!.C,!f!.F,!<)! z | %423
!fff!!sfz!!ped! [B,CE]2!ff! .[C,,C,].[C,,C,]!ped-up! | %424
!fff!!sfz!!ped! [A,CF]2!ff! .[C,,C,].[C,,C,]!ped-up! | %425
!fff!!sfz!!ped! [B,CE]2!ff! .[C,,C,].[C,,C,]!ped-up! | %426
!fff!!sfz!!ped! [A,CF]2!ff! .[C,,C,].[C,,C,]!ped-up! | %427
!fff!!sfz!!ped! [B,CE]2!ff! .[C,,C,].[C,,C,]!ped-up! | %428
!fff!!sfz!!ped! [A,CF]2!ff! .[C,,C,].[C,,C,]!ped-up! | %429
!fff!!sfz!!ped! [B,CE]2!ff! .[C,,C,].[C,,C,]!ped-up! || .[F,,A,,C,F,] z!f! .F,.A, | C>F C>F | %432
!fff! [F,_A,_D] z!f! _D,F, | _A,>_D A,>D |!ff!!sfz! [F,=A,C] z F,A, | C>F C>F | %436
 [A,D^F] z!f! D,^F, | A,>D A,>D | [^A,^C^F] z _G,_B, | _D>_G D>G |[K:treble] _D>_G D>G | %441
 _G>B B>_d | B>_d B>d | .B z z2 | z4 | (6:4:6B,_D_G BGD | (6:4:6_C_DF _AFD | (6:4:6_C_DF _AFD | %448
 (6:4:6B,_D_G BGD | (6:4:6B,_D_G BGD | (6:4:6B,C=E =GEC |[K:bass] (6:4:6C,G,B, EB,G, | %452
 (3F,A,C (3_E,A,C | (3._D, B,_D (3_GDB, | (3._D, _C_D (3FDC | (3._D, _C_D (3FDC | %456
 (3_G,B,_D (3_GDB, | (3.B,, _G,B, (3_DB,G, | (3.C, B,C (3=ECB, | (3.C, B,C (3ECB, | %460
 (3F,=A,C (3FCA, | (3._E, B,C (3FD!mp!B, | (3._D, B,_D (3_GDB, | (3.C, G,B, (3=EB,G, | %464
 (3F,A,C (3FCA, | (3._E, B,C (3FDB, | (3._D, B,_D (3_GDB, | (3.C, G,B, (3=EB,G, | %468
 (3F,A,C!<(! (3_E,A,!mf!C | (3._D,B,!<)!_D (3C,B,=E | (3F,A,C (3_E,A,!f!C | %471
 (3._D,B,_D!f!"^cresc. molto" .[C,B,C] z |!ff! [B,,C,B,]2 [G,,C,G,]2 | [E,,C,E,]2 [C,,C,]2 | %474
 [B,,,B,,]2 [G,,,G,,]2 |!ped! [C,,G,,C,]2 (3[G,B,E][G,B,E][G,B,E] | %476
 [G,B,E]2 (3[G,B,E][G,B,E][G,B,E] | [G,B,E]2 .[C,,G,,C,]2!ped-up!!ped! | %478
 [=B,,^G,=B,]3!ped-up! .[B,,^D,B,] | .[=B,,E,=B,] [B,,E,^C]3 | [=B,,^G,=B,]3 .[B,,A,B,] | %481
 .[=B,,^G,=B,] [B,,E,^C]3 | [=B,,=E,^G,=B,]4 | [=B,,^D,^F,=B,]4 | %484
 .[=B,,E,^G,=B,] z [=B,,,=F,,^G,,B,,] z | z4 | z4 | z4 | z4 | z4 | %490
 z2 z!ff!!ped! F,/4G,/4A,/4B,/4!ped-up! | C z z!ped! C,/4B,,/4A,,/4G,,/4!ped-up! | %492
!fff! .[F,,F,].[_E,_E] .[E,E][_D,_D] | .[_D,_D].[C,C] .[C,C].[D,D] | .[_D,_D].[F,,F,] [D,D]2 | %495
 .[B,,B,].[F,,F,] [B,,B,]2 | .[F,,F,].[_E,_E] .[E,E].[_D,_D] | .[_D,_D].[C,C] .[C,C].[D,D] | %498
 .[_D,_D].[F,,F,] [D,D]2 | .[B,,B,].[F,,F,] [B,,B,]2 |!ped! F,,F,F,C, | C,A,,A,,F,, | F,,C,C,A,, | %503
A,,F,, F,,C,, | C,,A,, A,,F,, | F,,C,, C,,[A,,,A,,] | [F,,,F,,]2!ped-up!!ped! z2!ped-up! | %507
{/C,D,E,} .[F,,F,]2!ped! z2!ped-up! |{/C,D,E,} .[F,,F,]2!ped! z2!ped-up! | %509
{/C,D,E,} .[F,,F,]2!ped! z2!ped-up! |{/!fermata!C,!fermata!D,!fermata!E,} !fermata![F,,F,]4 |] %511
V:9
 x8 | x8 | x8 |[K:bass] x8 | x8 | [B,,E,]3 z [A,,^D,]3 z | x8 | x8 | x8 | x8 | %10
 [F,B,]3 z [E,^A,]3 z | x8 | x7/2[K:treble] x9/2 | D D2 D D>D D>D | D D2 D D>D D>D | %15
 [A,C] [A,C]2 [G,_B,] [G,B,]7/2 [^F,A,]/ | x8 |[M:5/4] x10 | x10 |[M:4/4] x8 | x8 | x8 | %22
 B, B,2 B, B,>B, B,>B, | B, B,2 B, B,>B, B,>B, | B,>B, B,>B, B,>B, B,>B, | x8 |[M:5/4] x10 | x10 | %28
[M:4/4] x8 | x8 | x8 | x4 [Ac-]4 | c4 x z/ E/ E>E | B4 E>E E>E | x8 | x8 | [^A,^C^D]8- | %37
 [A,CD]4 z4 | x8 | x8 | x8 | x8 | x8 | x8 | x8 | x8 | x8 | x8 ||[K:E] x8 | x8 | x8 | x8 | x8 | x8 | %54
 x8 | x8 | x8 | x8 | x8 | x8 | x8 | x8 | x8 | x8 | x8 || x8 | x8 | G4 F4 | E4- E2 z2 | x8 | x8 | %71
 d4 c4 | B4- B2 z2 | x8 | x8 | x8 | x8 | x8 | x8 | x8 | x8 | x8 | x8 | x8 | x8 | x8 | x8 | x8 | %88
 x8 | x8 | x8 |{/[EGBBe]} [EGBe]3 .[FBdf] .[GBeg] [Aea]3 | x6 (3eee | %93
 x2 x x/ [FBdf]/ x2 x x/ [EGBe]/ | x8 | x4 x2 (3BBB | x4 x2 (3BBB | %97
 x2 x x/ [cef^ac']/ x2 x x/ [B,DFB]/ | x10/3!8va(! x5/3!8va)! x3 | x8 | x8 | x8 | [F,A,=DF]8 | %103
 x4 x2 (3BBB | x4 x2 (3eee | x4 x2 (3EEE | x8 | x4!8va(! x4 | x2!8va)! x6 ||[M:2/4] x2 | x4 | x4 | %112
[M:3/4] x6 |[M:2/4] x4 | x4 | x4 | x4 | x4 |[M:3/4] x6 | x6 |[M:2/4] x4 | x4 |[M:3/4] x6 | %123
[M:2/4] x4 || x4 | x4 | x4 | x4 | z A,3- | A, z z2 | x4 | x4 | x4 | x4 | x4 | x4 | x4 | x4 | x4 | %139
 x4 | x4 | x4 | x4 | x4 | x4 | x4 | x4 | x4 | x4 | x4 | x4 | x4 | x4 | x4 | x4 | x4 | x4 | x4 || %158
[K:C][M:2/4] x4 | x4 | x4 | x4 | x4 | x4 | x4 | x4 | x4 | x4 | x4 | x4 | x4 | x4 | x4 | x4 | x4 | %175
 x4 | x4 | x4 | x4 | x4 | x4 | x4 | x4 | x4 | x4 | x4 | x4 | x4 | x4 | x4 | x4 | x4 | x4 | x4 | %194
 x4 | x4 | x4 | x4 | x4 | x4 | x4 | x4 | x4 | x4 | x4 | x4 | x4 | x4 | x4 | x4 | x4 | x4 | x4 | %213
 x4 | x4 | x4 | x4 | x4 | x4 | x4 | =e/z/4f/4g/z/4e/4 z2 | x4 | x4 | x4 | x4 | x4 | x4 | x4 || %228
[K:Db] x4 | x4 | x4 | x2 x x/ x/4 [fad'f']/4 | x2 x x/ x/4 [eac'e']/4 | x2 z x/ x/4 [dfad']/4 | %234
 x4 | x4 | x4 | x4 | x4 | x2 x x/ x/4 [ceac']/4 | x2 x x/ x/4 [Be=gb]/4 | x2 x x/ x/4 [Acea]/4 | %242
 x4 | x4 ||[K:E] x4 | x4 | x4 | x4 | x4 | x4 | x4 | x4 ||[K:F] x4 | x4 | x4 | x4 | x4 | x4 | x4 | %259
 x4 | x4 | x4 | x4 | x4 | x4 | x4 | x4 | x4 | x4 | x4 | x4 | x4 | x4 | x4 | x4 | x6 |:[M:2/4] x4 | %277
 x4 | x4 | x4 | x4 | x4 | x4 | x4 | x4 | x4 | x4 | x4 | x4 | x4 | x4 | x4 | x4 | x4 | x4 | x4 | %296
 x4 | x4 | x4 | x4 | x4 | x4 | x4 | x4 | x4 | x4 | x4 |1 x4 | x4 | x4 | x4 | x4 | x4 | x4 :|2 x4 || %315
 x4 | x4 | x4 | x4 | x4 | x4 | x4 | x4 | x4 | x4 | x4 | x4 | x4 | x4 | x4 | x4 | x4 | x4 | x4 | %334
 x4 | x4 | x4 | x4 | x4 | x4 | x4 | x4 | x4 | x4 | x4 | x4 | x4 | x4 | x4 | x4 | x4 | x4 | x4 | %353
 x4 | x4 | x4 | x4 | x4 | x4 | x4 | x4 | x4 | x4 | x4 | x4 | x4 | x4 | x4 | x4 | x4 | x4 | x4 | %372
 x4 | x4 | x4 | x4 | x4 | x4 | x4 | x4 | x4 | x4 | x4 | x4 | x4 | x4 | x4 | x4 | x4 | x4 | x4 | %391
 x4 | x4 | x4 | x4 | x4 | x4 | x4 | x4 | x4 | x4 | x4 | x4 | x4 | x4 | x4 | x4 | x4 | x4 | x4 | %410
 x4 | x4 | x4 | x4 | x4 | x4 | x4 | x4 | x4 | x4 | x4 | x4 | x4 | x4 | x2 (5:4:5a/b/a/b/a/ | %425
 x2 (5:4:5g/a/g/a/g/ | x4 | x4 | x4 | x2 (5:4:5g/a/g/a/g/ || x4 | x4 | x4 | x4 | x4 | x4 | x4 | %437
 x4 | x4 | x4 | x4 | x4 | x4 | x4 | x4 | x4 | x4 | x4 | x4 | x4 | x4 | x4 | x4 | x4 | x4 | x4 | %456
 x4 | x4 | x4 | x4 | x4 | x4 | x4 | x4 | x4 | x4 | x4 | x4 | x4 | x4 | x4 | x4 | x4 | x4 | x4 | %475
 x4 | x4 | x4 |!8va(! x4 | x4 | x4 | x2 x x/ [^g=be'^g']/ | x2 x x/ [=b^d'^f'=b']/ | %483
 x2 x x/ [e'^g'=b'e'']/ | x3!8va)! x | x4 | x4 | x4 | x4 | x4 | x4 | x4 | x4 | x4 | x4 | x4 | x4 | %497
 x4 | x4 | x4 | x4 | x4 | x4 | x4 | x4 | x4 | x4 | x4 | x4 | x4 | x4 |] %511
V:10
 x8 | x8 | x8 | x8 | x8 | x8 | x8 | x8 | x8 | x8 | x8 | x8 | x8 | D,8 | D,8 | %15
 .F,, F,,2 [G,,,G,,]!>(! [_B,,,_B,,]7/2!>)! [D,,D,]/ | x8 |[M:5/4][K:treble] x10 | x10 | %19
[M:4/4] x8 | x8 | x8 |[K:bass] B,,8 | B,,8 | ^D,, D,,2 E,, [G,,,G,,]7/2 [B,,,B,,]/ | x8 | %26
[M:5/4] x10 |[K:bass] x10 |[M:4/4] x8 | x8 | x8 | B,3 A, F, G,3 | D,3 E, ^G, A,3 | G,4 G, C,3 | %34
 x8 | x8 | x8 | x8 | x8 | x8 | x8 | x8 | x8 | x8 | x8 | x8 | x8 | x8 ||[K:E] x8 | x8 | x8 | x8 | %52
 x8 | x8 | x8 | x8 | x8 | x8 | x8 | x8 | x8 | x8 | x8 | x8 | x8 || x8 | x8 | %67
 z7/4 [B,,E,G,]/4 [B,,E,G,]2 z7/4 [B,,D,F,]/4 [B,,D,F,]2 | z7/4 [E,,G,,B,,]/4 [E,,G,,B,,]2 z4 | %69
 x8 | x8 |[K:treble] z7/4 [F,B,D]/4 [F,B,D]2 z7/4 [F,^A,C]/4 [F,A,C]2 | %72
[K:bass] z7/4 [B,,,D,,F,,B,,]/4 [B,,,D,,F,,B,,]2 z4 |[K:treble] x8 | x8 |[K:bass] x8 | x8 | x8 | %78
 x8 | x8 | x8 | x8 |[K:treble] x8 | x8 |[K:bass] x8 | x8 | x8 | x8 | x8 | x8 | x8 | %91
 E,,/4E,/4E,,/4E,/4 E,,/4E,/4E,,/4E,/4 E,, x x2 (3EEE | x8 | %93
 x2 z z/ [B,,D,F,B,]/ B,,/4B,/4B,,/4B,/4B,,/4B,/4B,,/4B,/4 B,, z/ [E,,G,,B,,E,]/ | z8 | %95
 B,,/4B,/4B,,/4B,/4B,,/4B,/4B,,/4B,/4 .B,, x x2 (3B,B,B, | %96
 D,,/4D,/4D,,/4D,/4D,,/4D,/4D,,/4D,/4 .D,, x x2 (3B,B,B, | %97
 F,,/4F,/4F,,/4F,/4F,,/4F,/4F,,/4F,/4 .F,, z/ [F,,^A,,C,F,]/ F,,,/4F,,/4F,,,/4F,,/4F,,,/4F,,/4F,,,/4F,,/4 .F,,, z/ [B,,D,F,B,]/ | %98
 x8 | x8 | x8 | x8 | [=D,,=D,]8 | =G,,/4=G,/4G,,/4G,/4G,,/4G,/4G,,/4G,/4 .G,, x x2 (3B,B,B, | %104
 D,,/4D,/4D,,/4D,/4D,,/4D,/4D,,/4D,/4 .D,, z x2 (3EEE | x4 x2 (3E,E,E, | x8 | x8 | x8 || %109
[M:2/4] x2 | x4 | x4 |[M:3/4] x6 |[M:2/4] x4 | x4 | x4 | x4 | x4 |[M:3/4] x6 | x6 |[M:2/4] x4 | %121
 x4 |[M:3/4] x6 |[M:2/4][K:treble] x4 ||[K:bass] x4 | x4 | x4 | x4 | z =D,, A,,,2- | A,,, z z2 | %130
 x4 | x4 | x4 | x4 | x4 | x4 | x4 | x4 | x4 | x4 | x4 | x4 | x4 | x4 | x4 | x4 | x4 | x4 | x4 | %149
 x4 | x4 | x4 | x4 | x4 | x4 | x4 | x4 | x4 ||[K:C][M:2/4] x4 | x4 | x4 | x4 | x4 | x4 | x4 | x4 | %166
 x4 | x4 | x4 | x4 | x4 | x4 | x4 | x4 |[K:treble] x4 | x4 |[K:bass] x4 | x4 |[K:treble] x4 | x4 | %180
[K:bass] x4 | x4 | x4 | x4 | x4 |[K:treble] x4 |[K:bass] x2[K:treble] x2 | x4 |[K:bass] x4 | %189
 x7/4[K:treble] x9/4 |[K:bass] x2[K:treble] x2 | %191
[K:bass] x3/4[K:treble] x[K:bass] x[K:treble] x5/4 | x4 | x4 | x4 | x4 | x4 | x4 | x4 | x4 | x4 | %201
 x4 | x4 | x4 | x4 | x4 | x4 | x4 | x4 | x4 | x4 | x4 | x4 | x4 |[K:bass] x4 | x4 | %216
 x/[K:treble] x7/2 | x4 | x4 | x4 |[K:bass] x4 | x4 | x4 | x4 | x4 | x4 | x4 | x4 ||[K:Db] x4 | %229
 x4 | x4 | x2 x x/ x/4 [A,,D,F,A,]/4 | x2 x x/ x/4 [A,CEA]/4 | x2 x x/ x/4 [D,F,A,D]/4 | x4 | x4 | %236
 x4 | x4 | x4 | x2 x x/ x/4 [E,,A,,C,E,]/4 | x2 x x/ x/4 [E,=G,B,E]/4 | x2 x x/ x/4 [A,,C,E,A,]/4 | %242
 x4 | x4 ||[K:E] x4 | x4 | x4 | x4 | x4 | x4 | x4 | x4 ||[K:F] x4 | x4 | x4 | x4 | x4 | x4 | x4 | %259
 x4 | x4 | x4 | x4 | x4 | x4 | x4 | x4 | x4 | x4 | x4 | x4 | x4 | x4 | x4 | x4 | x6 |:[M:2/4] x4 | %277
 x4 | x4 | x4 | x4 | x4 | x4 | x4 | x4 | x4 | x4 | x4 | x4 | x4 | x4 | x4 |[K:treble] x4 | x4 | %294
 x4 | x4 | x4 | x4 | x4 | x4 | x4 | x4 | x4 | x4 | x4 | x4 | x4 |1 x4 | x4 | x4 | x4 | x4 | x4 | %313
 x4 :|2 x4 ||[K:bass] x3/2[K:treble] x5/2 |[K:bass] x4 | x4 | x4 | x3/2[K:treble] x5/2 | %320
[K:bass] x4 | x4 | x4 | x4 | x4 | x4 | x4 | x4 | x4 | x4 | x4 | x4 | x4 |[K:treble] x4 | x4 | x4 | %336
 x4 | x4 | x4 | x4 | x4 | x4 | x4 | x4 | x4 | x4 | x4 | x4 | x4 |[K:bass] .C, x .B,, x | %350
 .A,, x .A,, x | .G,, x .G,, x | .F,, x .=B,, x | .C, x ._B,, x | .A,, x .A,, x | .G,, x .G,, x | %356
 .F,, x x2 | x4 | x4 | x4 | x4 | x4 | x4 | x4 | x4 | x2[K:treble] x2 |[K:bass] x4 | x4 | x4 | %369
 x2[K:treble] x2 |[K:bass] x4 | x4 | x4 | x4 | x4 | x4 | x4 | x4 | x4 | x4 | x4 | x4 | x4 | %383
[K:treble] x4 | x4 | x4 | x4 | x4 | x4 | x4 | x4 | x4 | x4 | x4 | x4 | x4 | x4 | x4 | x4 | x4 | %400
 x4 | x4 | x4 | x4 | x4 | x4 | x4 |[K:bass] x4 | x4 | x4 | x4 | x4 | x4 | x4 | x4 | x4 | x4 | x4 | %418
 x4 | x4 | x4 | x4 | x4 | x4 | x4 | x4 | x4 | x4 | x4 | x4 || x4 | x4 | x4 | x4 | x4 | x4 | x4 | %437
 x4 | x4 | x4 |[K:treble] x4 | x4 | x4 | x4 | x4 | x4 | x4 | x4 | x4 | x4 | x4 |[K:bass] x4 | x4 | %453
 x4 | x4 | x4 | x4 | x4 | x4 | x4 | x4 | x4 | x4 | x4 | x4 | x4 | x4 | x4 | x4 | x4 | x4 | x4 | %472
 x4 | x4 | x4 | x4 | x4 | x2 x x/ x/4 [=B,,,=B,,]/4 | x4 | x4 | x4 | x4 | x4 | %483
 x2 x x/ [=B,,E,^G,=B,]/ | x4 | x4 | x4 | x4 | x4 | x4 | x4 | x4 | x4 | x4 | x4 | x4 | x4 | x4 | %498
 x4 | x4 | x4 | x4 | x4 | x4 | x4 | x4 | x4 | x4 | x4 | x4 | x4 |] %511

